/* XPM */
static char * Walltest4_xpm[] = {
"48 48 402 2",
"  	c #291D21",
". 	c #271B21",
"+ 	c #32232F",
"@ 	c #322231",
"# 	c #34222D",
"$ 	c #34232B",
"% 	c #33212A",
"& 	c #2B1921",
"* 	c #221119",
"= 	c #32232B",
"- 	c #31222A",
"; 	c #322028",
"> 	c #2E2228",
", 	c #2A282B",
"' 	c #36383A",
") 	c #23151A",
"! 	c #211018",
"~ 	c #301B29",
"{ 	c #301B2B",
"] 	c #301C27",
"^ 	c #311B27",
"/ 	c #311B25",
"( 	c #301A24",
"_ 	c #321924",
": 	c #2B151F",
"< 	c #200812",
"[ 	c #2D151F",
"} 	c #341C26",
"| 	c #321C26",
"1 	c #311D26",
"2 	c #301C25",
"3 	c #2D1C24",
"4 	c #21191E",
"5 	c #353235",
"6 	c #200F17",
"7 	c #1E0711",
"8 	c #2E1524",
"9 	c #331A29",
"0 	c #311A29",
"a 	c #2D1624",
"b 	c #311825",
"c 	c #331A25",
"d 	c #351D27",
"e 	c #361E28",
"f 	c #361B26",
"g 	c #2F1723",
"h 	c #321926",
"i 	c #341B28",
"j 	c #351C29",
"k 	c #331A27",
"l 	c #28101C",
"m 	c #220714",
"n 	c #250A18",
"o 	c #311623",
"p 	c #301522",
"q 	c #2E1522",
"r 	c #2A141E",
"s 	c #2E1821",
"t 	c #36202A",
"u 	c #2F1825",
"v 	c #24161D",
"w 	c #362C32",
"x 	c #220E17",
"y 	c #1F0613",
"z 	c #2F1323",
"A 	c #341929",
"B 	c #2B1523",
"C 	c #321C28",
"D 	c #301A26",
"E 	c #270E1B",
"F 	c #200714",
"G 	c #230A17",
"H 	c #2B121F",
"I 	c #2D1421",
"J 	c #341E27",
"K 	c #241019",
"L 	c #37282F",
"M 	c #280C1C",
"N 	c #2C1121",
"O 	c #2B1121",
"P 	c #240E1C",
"Q 	c #27101C",
"R 	c #29131D",
"S 	c #2D1720",
"T 	c #24101B",
"U 	c #26121E",
"V 	c #291520",
"W 	c #2A1621",
"X 	c #28131F",
"Y 	c #230D19",
"Z 	c #200916",
"` 	c #1F0814",
" .	c #210B17",
"..	c #240E1A",
"+.	c #230F1A",
"@.	c #25121A",
"#.	c #26131C",
"$.	c #28141D",
"%.	c #28121E",
"&.	c #2A111E",
"*.	c #2C1320",
"=.	c #2A1420",
"-.	c #1E0B13",
";.	c #1D0212",
">.	c #220616",
",.	c #200716",
"'.	c #1A0312",
").	c #1C0612",
"!.	c #1F0912",
"~.	c #210B15",
"{.	c #220C16",
"].	c #200A13",
"^.	c #1A0611",
"/.	c #1C0813",
"(.	c #1E0A16",
"_.	c #1F0B17",
":.	c #1D0914",
"<.	c #1E0713",
"[.	c #1B0511",
"}.	c #1A0410",
"|.	c #1B050F",
"1.	c #1C0310",
"2.	c #1A060F",
"3.	c #2F2027",
"4.	c #290D1D",
"5.	c #270E1D",
"6.	c #1F0615",
"7.	c #270B19",
"8.	c #290E19",
"9.	c #2B101C",
"0.	c #2C111D",
"a.	c #240915",
"b.	c #280D18",
"c.	c #230813",
"d.	c #1D0411",
"e.	c #250C19",
"f.	c #240B18",
"g.	c #2B101E",
"h.	c #2C111F",
"i.	c #2A0F1C",
"j.	c #280C1A",
"k.	c #290E1B",
"l.	c #220712",
"m.	c #260815",
"n.	c #2D0F1C",
"o.	c #270A16",
"p.	c #2A0D19",
"q.	c #260D1A",
"r.	c #210D16",
"s.	c #36272E",
"t.	c #1E0510",
"u.	c #361A28",
"v.	c #412636",
"w.	c #3F2535",
"x.	c #311727",
"y.	c #341927",
"z.	c #371C27",
"A.	c #391E2A",
"B.	c #3A1F2B",
"C.	c #3E232E",
"D.	c #341A25",
"E.	c #240917",
"F.	c #3A1F2D",
"G.	c #3F2431",
"H.	c #412634",
"I.	c #3B202E",
"J.	c #341625",
"K.	c #1F010E",
"L.	c #290916",
"M.	c #3A1A27",
"N.	c #41212E",
"O.	c #3F222E",
"P.	c #3C2330",
"Q.	c #2A161F",
"R.	c #3C2D34",
"S.	c #26131A",
"T.	c #250C17",
"U.	c #381D2A",
"V.	c #381E2E",
"W.	c #301928",
"X.	c #3C242E",
"Y.	c #2B121D",
"Z.	c #2B1521",
"`.	c #2D1622",
" +	c #361E2A",
".+	c #3B222F",
"++	c #3D2431",
"@+	c #3A212E",
"#+	c #402734",
"$+	c #250A16",
"%+	c #3B1D2A",
"&+	c #3A1C28",
"*+	c #3E212D",
"=+	c #3D222D",
"-+	c #381F2C",
";+	c #341D29",
">+	c #2C1921",
",+	c #3D2E35",
"'+	c #2C191F",
")+	c #2F1721",
"!+	c #2A1020",
"~+	c #351E2A",
"{+	c #2E1723",
"]+	c #210D18",
"^+	c #2D1925",
"/+	c #311D28",
"(+	c #2A0F1A",
"_+	c #381D28",
":+	c #1E0512",
"<+	c #3C3036",
"[+	c #321F25",
"}+	c #311823",
"|+	c #341D2B",
"1+	c #351E2C",
"2+	c #2F1827",
"3+	c #29131F",
"4+	c #301321",
"5+	c #351726",
"6+	c #331826",
"7+	c #2C1B23",
"8+	c #3B3136",
"9+	c #311821",
"0+	c #331824",
"a+	c #321C2A",
"b+	c #27101F",
"c+	c #361827",
"d+	c #2A1B23",
"e+	c #321F23",
"f+	c #2A1322",
"g+	c #2E1725",
"h+	c #371A28",
"i+	c #381B29",
"j+	c #2F141F",
"k+	c #361F2E",
"l+	c #3A1C2A",
"m+	c #261318",
"n+	c #1F070F",
"o+	c #210513",
"p+	c #371C29",
"q+	c #2E1F26",
"r+	c #3A3035",
"s+	c #291221",
"t+	c #311422",
"u+	c #331523",
"v+	c #2F1120",
"w+	c #2E101F",
"x+	c #2D0F1E",
"y+	c #230816",
"z+	c #2F1321",
"A+	c #291820",
"B+	c #251216",
"C+	c #200810",
"D+	c #210611",
"E+	c #1C0514",
"F+	c #200918",
"G+	c #220B1A",
"H+	c #210A19",
"I+	c #1E0715",
"J+	c #1B0413",
"K+	c #220C18",
"L+	c #210916",
"M+	c #260817",
"N+	c #230614",
"O+	c #220513",
"P+	c #210312",
"Q+	c #1E0311",
"R+	c #200412",
"S+	c #1B0A12",
"T+	c #2C2227",
"U+	c #230C1B",
"V+	c #260F1D",
"W+	c #1F0816",
"X+	c #270918",
"Y+	c #250716",
"Z+	c #190810",
"`+	c #311621",
" @	c #39202D",
".@	c #391E2C",
"+@	c #280F1F",
"@@	c #230919",
"#@	c #1A0111",
"$@	c #260D1C",
"%@	c #321725",
"&@	c #2E1220",
"*@	c #382E34",
"=@	c #3C1E2D",
"-@	c #3D1F2E",
";@	c #3E212F",
">@	c #361A2A",
",@	c #2D1423",
"'@	c #240A1A",
")@	c #1D0413",
"!@	c #2C1322",
"~@	c #321828",
"{@	c #3D212F",
"]@	c #241115",
"^@	c #210911",
"/@	c #321723",
"(@	c #3B1D2C",
"_@	c #331828",
":@	c #210818",
"<@	c #1E0514",
"[@	c #341B2A",
"}@	c #250C1B",
"|@	c #241117",
"1@	c #19000F",
"2@	c #2C0E1C",
"3@	c #280A19",
"4@	c #210913",
"5@	c #372D33",
"6@	c #2A0D1B",
"7@	c #2F1625",
"8@	c #210D14",
"9@	c #1D040F",
"0@	c #351C2B",
"a@	c #25141C",
"b@	c #1C030E",
"c@	c #180910",
"d@	c #31272D",
"e@	c #251218",
"f@	c #2B181E",
"g@	c #2C131E",
"h@	c #23141C",
"i@	c #311E24",
"j@	c #422735",
"k@	c #3A2130",
"l@	c #412835",
"m@	c #37212D",
"n@	c #361D2C",
"o@	c #1C0212",
"p@	c #18000C",
"q@	c #342128",
"r@	c #331B23",
"s@	c #19000D",
"t@	c #201118",
"u@	c #352B31",
"v@	c #1D020E",
"w@	c #16080F",
"x@	c #2E242A",
"y@	c #1D0F16",
"z@	c #221215",
"A@	c #200A11",
"B@	c #19010B",
"C@	c #1F0711",
"D@	c #3D2633",
"E@	c #3C2332",
"F@	c #3B2231",
"G@	c #3B232D",
"H@	c #39232D",
"I@	c #2B1C24",
"J@	c #221416",
"K@	c #17060C",
"L@	c #261019",
"M@	c #391F2F",
"N@	c #3A212C",
"O@	c #38222C",
"P@	c #3D3339",
"Q@	c #2E1620",
"R@	c #240B16",
"S@	c #28101A",
"T@	c #281920",
"U@	c #241316",
"V@	c #18050C",
"W@	c #341A23",
"X@	c #30151E",
"Y@	c #311C23",
"Z@	c #291A21",
"`@	c #381F2A",
" #	c #381F28",
".#	c #362028",
"+#	c #1B0D0F",
"@#	c #16050A",
"##	c #2D1A23",
"$#	c #2F1923",
"%#	c #2F1B22",
"&#	c #2D1A21",
"*#	c #2B1720",
"=#	c #1D0912",
"-#	c #29151E",
";#	c #2F1B24",
">#	c #2A171D",
",#	c #2B1A1F",
"'#	c #2C1B21",
")#	c #33292A",
"!#	c #33272B",
"~#	c #403139",
"{#	c #423139",
"]#	c #432F3B",
"^#	c #433039",
"/#	c #413036",
"(#	c #3F3136",
"_#	c #3E3034",
":#	c #392B30",
"<#	c #3D2E33",
"[#	c #3A2C31",
"}#	c #34252A",
"|#	c #37292D",
"1#	c #3E3136",
"2#	c #3C3034",
"3#	c #3B3134",
"4#	c #3A2E34",
"5#	c #42383D",
"  . + @ @ + # # $ $ % % % % % % % % $ $ $ $ & * * & $ $ $ = = = = = = = = = - - - % ; ; ; > , ' ",
") ! ~ { { ~ ] ^ / / ( _ _ ( ( ( ( ( / / / / : < < [ } | | | 1 1 1 1 1 1 1 1 2 / / / ( ( ( 3 4 5 ",
"6 7 8 9 0 a b c d e } f f } g h i j k k k k l m n o p q q q r s | t | | | | ^ k k k b b b u v w ",
"x y z A 9 B g _ } d c c c c q u ^ C D D D h E F G H I I I I : s / J J J J J i i i i i i i C K L ",
"x y M N O P Q R : S r r r r T U V W X X X X Y Z `  .......+.@.#.#.$.$.$.$.$.%.&.&.&.*.*.*.=.-.= ",
"x y ;.>.,.'.).!.~.{.].].].].^./.(._.:.:.:.:.Z <.[.}.).).).).~.].].!.|.|.|.|.1.1.1.1.y y y <.2.3.",
"x F 4.N 5.6.7.8.9.0.8.a.b.c.d.d.e.f.E E E E 7.g.h.i.j.7.k.i.l.m.n.o.p.p.p.8.E F e.f.q.q.q...r.s.",
"x t.u.v.w.x.y.z.A.B.C.f D.0.E.f.q q i i i u.F.G.H.G.H.I.H.J.K.L.M.M.N.N.N.O.o F q.g i P.P.C Q.R.",
"S.T.p U.V.W.b c d e X.} c Y.).` Z.`.D D D D  +.+++.+@+@+#+q $+n.%+&+*+*+*+=+h y E -+j ++++;+>+,+",
"'+)+h.j.!+^ `.u ^ C ~+D C {+:.]+^+/+] ] ] ^ u ;+~+C C ~+;+g c.(+A._+z.z.z.z.H :+E i i i i C & <+",
"[+}+n E.l ^ ^ 0 |+1+1+2+W.3+}.Z ;+C D D D u b b b b i  +j *.E.4+5+5+5+5+5+6+&.d.q.k k k k ^ 7+8+",
"[+9+0+p I {+a a 2+W.a+B a b+[. .;+D {+`.{+{+i i j j h H q.g.4+J.5+c+5+5+5+5+g.d.q.k k k k ^ d+8+",
"e+9+_+z.h =.f+f+a g+a+B a b+).Z D Z.`.`.{+u j j j j h E y h.5+5+h+i+5+5+5+5+g.d.q.k k k k ^ d+8+",
"e+9+j+D.h 3+a a 2+W.k+W.W.f+).` {+%.Z.`.u D h h h h q l e.y.5+c+i+l+5+5+5+5+g.d.q.k k k k ^ d+8+",
"m+n+9.9.&.%.g+0 |+0 a+2+0 a ` <.Z ` `.C ~+^ q I H &.g g g o i+h+i+i+i+c+5+J.7.o+7.y.p+p+p+;+q+r+",
"m+n+0.0.H 3+f+g+W.g+2+B g+s+` <.Z ` %.Z.{+`.I *.&.l H H H h.t+t+u+t+t+v+w+x+7.y+7.o z+z+z+I A+w ",
"B+C+D+D+y <.E+F+G+F+H+I+F+J+` <.Z ` <.).` K+G L+y :+F F F m M+M+M+M+M+N+O+P+o+Q+R+E.m m m F S+T+",
"B+C+l.l.F ` F+U+V+U+P H+U+W+F y L+F L+:+F E G L+y :+G G G G n M+X+X+X+Y+N+O+o+o+o+m E.E.E.G Z+T+",
"B+C+j+`+h C g i @+ @-+i b h y.u.U..@.@.@.@.@9 O +@@@#@$@O x.z+p %@y.U.p+U.U.6+p y.G..@o &@g & *@",
"B+C+j+`+h C k -+.+@+@+ +i %@i+l+=@-@;@;@;@;@>@8 ,@'@)@!+!@~@6+u.U..@I.F.I.I.F.U.U.{@F.p+u.j & *@",
"]@^@j+/@k C i  +-+j h i -+y.c+h+l+(@l+l+l+l+_@x.8 :@<@+@+@!@o 6+u.p+p+u.p+p+F..@6+&@p 6+y.h & *@",
"]@^@j+%@k ^ b k h q *.b j .@c+h+l+(@c+c+c+c+A [@9 @@#@}@@@}@z+p %@6+%@o %@%@U.U.z+m j.p 6+q & *@",
"|@^@j+%@9 0 j k b g g k k %@u+J.J.J.5+5+5+5+_@9 ~@:@1@$@+@,@p %@6+6+6+o p z+2@v+v+3@x+t+c+b & *@",
"|@4@z+%@9 W.k h h b g k k z+M+N+u+v+5+5+5+5+_@9 ~@:@<@O ,@~@6+6+6+6+h.i.7.E.Y+N+2@h+i+c+5+g A+5@",
"|@4@z+6+[@W.b h k k g h h z+6@M+t+w+5+5+5+5+_@9 ~@:@,.,@7@[@6+6+%@%@%@z+k.E.n E.g..@u.6+o g A+5@",
"|@4@z+6+[@W.q b k j g k h *.z+x+3@M+5+5+5+6+~@9 ~@:@<@O ,@~@%@%@%@%@%@z+j.y+p &@z+p 6+6+6+h 7+r+",
"8@9@h.y.[@f+O ,@7@~@0@~@!@!+I i.n E.u.y.%@g q  +q F y H b b ,@,@,@,@0@7@$@,.i.h.p o u.u.u.i a@r+",
"8@b@m m }@b+'@'@:@:@6.:@@@6.G L+:+1.E q.f.G F G G F L+G G e.@@@@@@@@}@@@,.<@R+m E.n n E.E. .c@d@",
"e@4@y+m :@H+@@:@,.6.6.,.:@@@F L+L+L+F y d.1.d.:+L+F :+d.d.:+<@<@<@<@,.,.6.<@:+F G e.F F F ` c@d@",
"f@g@o y.!@I++@O ,@7@x.O @@}@F e.*.h h b q I H *.l L+q.I g I 8 8 8 8 !+5.'@,.l H q g I I I Z.h@r+",
"i@} G.j@[@E+O x.0@k@k@O )@@@L+&.-+l@.+@+-+ +i h b q.f..+++ @k@V.9 x.9 [@}@)@E j -+P.P.@+ @m@d+5@",
"'+)+&@p 7@V+,@x.0@V.n@+@)@@@E H h  +j i h b i b h l E b q b 0@9 8 !@9 [@}@)@E i b j  + + +~+d+5@",
"'+)+n E.!@2+7@9 [@0@9 5.o@$@i i  +-+i h b g -+h  +k -+f.p@&.9 x.!@!+9 [@}@)@&.j h i i i i C d+5@",
"i@} i.n +@0 ~@9 9 9 x.5.o@!@b h i  + +j k h j *.q g g f.d.*.0@9 8 !@9 [@}@)@*. +k j h h h D d+5@",
"q@c u.6+7@B 7@9 9 7@[@5.,.!+k h b g j i k i *.:+y F d.b k k 9 9 9 9 [@0@}@)@I j k g h I I D d+5@",
"q@c u.6+7@B 7@9 9 7@9 $@6.+@h h b b i i g I &.L+L+L+:+*.g h 9 9 9 9 x.9 }@)@H h b I h I I D d+5@",
"q@c u.6+7@B 7@9 9 7@x.'@)@$@q b h i i i *.L+E *.l &.E l E g 9 9 9 9 !@7@'@<@l g q H h I I D d+5@",
"q@r@f 6+7@B 7@9 9 7@7@@@o@}@I g k j i i l s@f.b q h g l G b 9 9 9 9 !+8 '@<@q.I *.&.h I I D d+5@",
"]@^@b.E.f.%.!++@$@}@'@:@6.<@L+G q.E l q.f.G y G q.q.E G G E +@+@+@+@'@:@6.o@q.q.L+L+e.e.e.Y t@u@",
"]@^@l.v@1.` '@@@,.6.6.<@)@)@1.d.:+y L+F y :+F y :+:+y f.f.y )@)@)@)@6.<@<@)@:+F :+y F F F ` w@x@",
"]@^@a.c.E u O !+5.$@5.+@!+!+*.H &.l E l &.H f.d.:+l E *.*.E O O O O +@$@@@,.e.E l *.Y.Y.Y.R y@d@",
"z@A@B@C@q D@V.n@[@9 0@V.k@E@@+-+j k i  + @.+b L+L+k j h h j F@F@F@F@0@7@$@,.g i  +P.G@G@G@H@I@8+",
"J@K@@.L@I  @[@[@[@[@V.V.V.V.M@V.0@9 9 [@n@M@,@,.'@~@n@9 9 n@k@k@k@k@b g H f.g }+d X.N@d d O@I@P@",
"J@K@$.r b p+i [@[@[@~@~@~@~@n@0@[@9 9 9 [@n@,@,.'@~@~@8 8 ~@9 9 9 9 g h i k Q@R@S@_ _ [ [ ( T@r+",
"U@V@s c h+5+u.u.u.u.%@%@%@%@%@6+y.u.y.y.y.u.z+m n 6+6+p p 6+6+6+6+6+o /@D.z.8.l.8.=+W@X@X@Y@Z@8+",
"U@V@( `@l+u+f } } } c c c c Q@g k i i k k k I F f.h  +k k  +j j j d } c c } _ Q@Q@e  #r@r@.#Z@8+",
"+#@###$#b b ( %#%#%#&#&#&#&#e@$.*###>+*#*#*#K 2.=#-#########;#;#;#%#f@>#>#f@,#,#,#,#'#'#'#'#T@5@",
")#!#~#{#]#^#/#(#(#(#_#_#_#_#:#:#<#<#_#<#<#<#[#}#|#(#<#<#<#<#_#_#_#_#(#_#_#1#2#2#2#3#3#3#3#3#4#5#"};
