/* XPM */
static char * Walltest3_xpm[] = {
"48 48 1796 2",
"  	c #474948",
". 	c #545957",
"+ 	c #4A4E4D",
"@ 	c #4C534E",
"# 	c #474F4A",
"$ 	c #393F39",
"% 	c #3F463A",
"& 	c #565D50",
"* 	c #5C6353",
"= 	c #515846",
"- 	c #5B634C",
"; 	c #475036",
"> 	c #3C442D",
", 	c #444B39",
"' 	c #565E4E",
") 	c #555C4E",
"! 	c #43493E",
"~ 	c #3A4239",
"{ 	c #818984",
"] 	c #9AA19E",
"^ 	c #9DA4A4",
"/ 	c #979EA0",
"( 	c #94989B",
"_ 	c #9B9FA4",
": 	c #979AA0",
"< 	c #666A6D",
"[ 	c #555A5B",
"} 	c #464B47",
"| 	c #40463D",
"1 	c #494F44",
"2 	c #525751",
"3 	c #5A5E61",
"4 	c #696C76",
"5 	c #696B7A",
"6 	c #6B6D7F",
"7 	c #6E707D",
"8 	c #6F727C",
"9 	c #6E6F78",
"0 	c #797A80",
"a 	c #838685",
"b 	c #71746E",
"c 	c #4C5048",
"d 	c #50534B",
"e 	c #6B6E68",
"f 	c #6D706D",
"g 	c #686A6C",
"h 	c #6E7074",
"i 	c #5A5C5E",
"j 	c #4E504F",
"k 	c #636866",
"l 	c #5B605E",
"m 	c #58605B",
"n 	c #4A524D",
"o 	c #333B34",
"p 	c #3E463A",
"q 	c #5C6557",
"r 	c #66705F",
"s 	c #5F6A54",
"t 	c #5F6A52",
"u 	c #4A563B",
"v 	c #3F4A2D",
"w 	c #6E7961",
"x 	c #69735D",
"y 	c #3E4834",
"z 	c #2B3426",
"A 	c #B9C1B8",
"B 	c #F2FAF3",
"C 	c #EAF1EF",
"D 	c #F3FAFA",
"E 	c #EFF5F7",
"F 	c #F6FCFF",
"G 	c #F1F7FC",
"H 	c #777D7F",
"I 	c #5D6464",
"J 	c #4C544C",
"K 	c #3A4337",
"L 	c #495340",
"M 	c #5E6855",
"N 	c #727A73",
"O 	c #9AA0A2",
"P 	c #9EA4AD",
"Q 	c #9CA0AF",
"R 	c #9A9EAE",
"S 	c #9A9CAB",
"T 	c #9C9CA7",
"U 	c #B2B3B7",
"V 	c #C4C7C4",
"W 	c #B2B5AD",
"X 	c #5F6357",
"Y 	c #666A5E",
"Z 	c #969991",
"` 	c #9DA09C",
" .	c #959798",
"..	c #A1A3A7",
"+.	c #7C7E80",
"@.	c #525554",
"#.	c #555A58",
"$.	c #6A716F",
"%.	c #7C8682",
"&.	c #6D7771",
"*.	c #666E67",
"=.	c #6C756B",
"-.	c #828B7F",
";.	c #879082",
">.	c #838D7A",
",.	c #86907A",
"'.	c #354126",
").	c #4F5B3C",
"!.	c #5F6B4C",
"~.	c #697459",
"{.	c #65705A",
"].	c #616A59",
"^.	c #B6BEB2",
"/.	c #D5DDD6",
"(.	c #C8CFCD",
"_.	c #CBD4D4",
":.	c #C5CED2",
"<.	c #CED6DC",
"[.	c #C8D0D6",
"}.	c #93999D",
"|.	c #899090",
"1.	c #545C54",
"2.	c #3A4335",
"3.	c #47523A",
"4.	c #545F44",
"5.	c #56604F",
"6.	c #7E867E",
"7.	c #888F91",
"8.	c #8D929C",
"9.	c #9397A5",
"0.	c #969BA9",
"a.	c #9396A0",
"b.	c #9C9DA1",
"c.	c #A3A6A0",
"d.	c #8E9287",
"e.	c #525748",
"f.	c #575C4C",
"g.	c #909489",
"h.	c #959892",
"i.	c #8F9192",
"j.	c #9D9EA4",
"k.	c #797A7E",
"l.	c #4A4D4C",
"m.	c #303435",
"n.	c #919898",
"o.	c #EDF6F5",
"p.	c #DDE6E3",
"q.	c #E4EBE9",
"r.	c #E5EDE8",
"s.	c #E3EBE4",
"t.	c #E3EBE2",
"u.	c #E1E9DD",
"v.	c #F1FAEC",
"w.	c #949D8C",
"x.	c #2C3621",
"y.	c #475333",
"z.	c #636F4D",
"A.	c #687356",
"B.	c #D7E2CC",
"C.	c #E9F2E3",
"D.	c #BBC4BA",
"E.	c #B2BAB5",
"F.	c #A1A7A7",
"G.	c #828B8C",
"H.	c #98A0A4",
"I.	c #ADB5BB",
"J.	c #B3BBC1",
"K.	c #DCE2E7",
"L.	c #EDF4F4",
"M.	c #757D76",
"N.	c #353F30",
"O.	c #3C482D",
"P.	c #3F4A31",
"Q.	c #5A625A",
"R.	c #858B8D",
"S.	c #979DA6",
"T.	c #9499A5",
"U.	c #999CA2",
"V.	c #7E8381",
"W.	c #5A6057",
"X.	c #434A38",
"Y.	c #3F4734",
"Z.	c #848B7D",
"`.	c #959B92",
" +	c #929697",
".+	c #767A7D",
"++	c #565857",
"@+	c #3C4041",
"#+	c #959C9C",
"$+	c #E0E9E9",
"%+	c #D2DBDB",
"&+	c #DCE4E6",
"*+	c #DDE4E6",
"=+	c #DCE2E5",
"-+	c #DBE2E2",
";+	c #DDE4E2",
">+	c #ECF4EF",
",+	c #9DA59E",
"'+	c #3B4534",
")+	c #546040",
"!+	c #5F6C4A",
"~+	c #626D52",
"{+	c #C9D3C0",
"]+	c #DCE4DB",
"^+	c #BBC3C0",
"/+	c #AFB5B7",
"(+	c #9EA4A9",
"_+	c #8A9296",
":+	c #9AA2A9",
"<+	c #AEB6BF",
"[+	c #B7BFC8",
"}+	c #D1D7DE",
"|+	c #E8EEEE",
"1+	c #79817A",
"2+	c #454E3F",
"3+	c #505B41",
"4+	c #3F4B2B",
"5+	c #485437",
"6+	c #535D45",
"7+	c #5E6857",
"8+	c #878F88",
"9+	c #969D9F",
"0+	c #898F94",
"a+	c #989C9D",
"b+	c #7D827E",
"c+	c #585E51",
"d+	c #545C49",
"e+	c #474F3A",
"f+	c #434B36",
"g+	c #828979",
"h+	c #979C94",
"i+	c #909495",
"j+	c #93979C",
"k+	c #72767A",
"l+	c #A8ABAA",
"m+	c #DFE3E4",
"n+	c #C0C7C7",
"o+	c #B3BCB9",
"p+	c #B3BFBF",
"q+	c #B2BCC6",
"r+	c #B4BBC8",
"s+	c #B3BAC5",
"t+	c #B2B9C2",
"u+	c #D2DAE1",
"v+	c #DFE7EB",
"w+	c #DAE3E5",
"x+	c #D7E1D9",
"y+	c #ABB89D",
"z+	c #3E4D2C",
"A+	c #3C4930",
"B+	c #909B8C",
"C+	c #9BA5A0",
"D+	c #949DA1",
"E+	c #979EA9",
"F+	c #969DA8",
"G+	c #98A0A6",
"H+	c #949DA3",
"I+	c #949CA5",
"J+	c #98A0A8",
"K+	c #AEB6BD",
"L+	c #B3BCBB",
"M+	c #C3CDC5",
"N+	c #D3DFD0",
"O+	c #96A28C",
"P+	c #344224",
"Q+	c #3D4B2B",
"R+	c #435133",
"S+	c #3F4A2F",
"T+	c #57614E",
"U+	c #636B64",
"V+	c #5A615E",
"W+	c #686F6C",
"X+	c #565E57",
"Y+	c #404939",
"Z+	c #47513C",
"`+	c #5D664E",
" @	c #616952",
".@	c #646C5A",
"+@	c #62685D",
"@@	c #5A5E5F",
"#@	c #64686E",
"$@	c #565B5C",
"%@	c #B9BBBC",
"&@	c #EFF3F4",
"*@	c #C8CFCF",
"=@	c #ABB4B3",
"-@	c #AEB9BC",
";@	c #B0BAC4",
">@	c #B0B9C8",
",@	c #B0B7C5",
"'@	c #AFB7C2",
")@	c #CCD4DF",
"!@	c #E2EAF3",
"~@	c #DCE4EA",
"{@	c #ECF5F2",
"]@	c #BECBB7",
"^@	c #303E23",
"/@	c #46533D",
"(@	c #8A9588",
"_@	c #8D9796",
":@	c #929AA3",
"<@	c #9299A9",
"[@	c #939AAA",
"}@	c #939BA4",
"|@	c #8A9298",
"1@	c #899199",
"2@	c #9098A0",
"3@	c #B2BAC0",
"4@	c #ABB3B5",
"5@	c #CFD9D3",
"6@	c #FAFFFA",
"7@	c #98A494",
"8@	c #34402C",
"9@	c #3E4B33",
"0@	c #374528",
"a@	c #414D30",
"b@	c #556048",
"c@	c #576052",
"d@	c #555D54",
"e@	c #5E675D",
"f@	c #4E574B",
"g@	c #37402F",
"h@	c #3C4731",
"i@	c #58604B",
"j@	c #565E4C",
"k@	c #535A4A",
"l@	c #595F54",
"m@	c #595E5A",
"n@	c #5F6364",
"o@	c #525755",
"p@	c #989A9C",
"q@	c #C7CBCF",
"r@	c #B9BFC2",
"s@	c #B3BBBF",
"t@	c #A8B3B6",
"u@	c #95A0A5",
"v@	c #99A3A9",
"w@	c #AFB7BE",
"x@	c #B4BCC2",
"y@	c #BBC3C9",
"z@	c #BAC2C8",
"A@	c #C3CCCF",
"B@	c #E1EBEA",
"C@	c #B5C0B3",
"D@	c #374430",
"E@	c #4A5740",
"F@	c #5F6B59",
"G@	c #6F7878",
"H@	c #878E99",
"I@	c #9399AC",
"J@	c #8F95A7",
"K@	c #9198A3",
"L@	c #91999F",
"M@	c #9199A1",
"N@	c #9DA5A9",
"O@	c #A9B2B4",
"P@	c #BAC3C4",
"Q@	c #B7C0C2",
"R@	c #B2BBB8",
"S@	c #9EA99C",
"T@	c #5E6A56",
"U@	c #56634A",
"V@	c #586450",
"W@	c #525E4C",
"X@	c #3F4B3A",
"Y@	c #768270",
"Z@	c #BAC6B4",
"`@	c #B3BDAC",
" #	c #BEC7B8",
".#	c #BFC7BE",
"+#	c #A6AEA7",
"@#	c #98A099",
"##	c #6D7768",
"$#	c #404841",
"%#	c #B7BBBE",
"&#	c #ABB1B6",
"*#	c #AFB9BF",
"=#	c #8A949A",
"-#	c #929DA0",
";#	c #AFB8BC",
">#	c #B9C1C3",
",#	c #ACB4B8",
"'#	c #C2CACE",
")#	c #F7FFFE",
"!#	c #BBC6B9",
"~#	c #36432C",
"{#	c #3F4D32",
"]#	c #525E4A",
"^#	c #4F5855",
"/#	c #767E87",
"(#	c #9197AA",
"_#	c #90989E",
":#	c #A5ADB3",
"<#	c #C8CFD8",
"[#	c #FAFFFF",
"}#	c #D6E0D8",
"|#	c #6E7A68",
"1#	c #6B785F",
"2#	c #606E50",
"3#	c #5F6D4F",
"4#	c #4C5A3E",
"5#	c #212D1B",
"6#	c #808B7E",
"7#	c #EFFAF0",
"8#	c #E6F0E8",
"9#	c #E8EFEC",
"0#	c #E1E7E7",
"a#	c #C3CACE",
"b#	c #B6BDBA",
"c#	c #6B7564",
"d#	c #323C29",
"e#	c #40483F",
"f#	c #BFC3C6",
"g#	c #A5ABB0",
"h#	c #9BA4AA",
"i#	c #9BA5AD",
"j#	c #929CA2",
"k#	c #919BA1",
"l#	c #9FA7AB",
"m#	c #B3BCBD",
"n#	c #B4BDBE",
"o#	c #A8B1B3",
"p#	c #A6B0AA",
"q#	c #838F7B",
"r#	c #334123",
"s#	c #435131",
"t#	c #727F66",
"u#	c #737D75",
"v#	c #899195",
"w#	c #949CA7",
"x#	c #8F96A1",
"y#	c #8D969C",
"z#	c #A6AEB4",
"A#	c #B4BCC4",
"B#	c #ABB2BD",
"C#	c #949F97",
"D#	c #505D46",
"E#	c #51603D",
"F#	c #4F5F35",
"G#	c #536437",
"H#	c #657351",
"I#	c #7A857A",
"J#	c #979FA3",
"K#	c #CBD4D8",
"L#	c #C4CCD3",
"M#	c #D8DDE9",
"N#	c #D8DDEB",
"O#	c #CED2E1",
"P#	c #D4D9E1",
"Q#	c #747D6F",
"R#	c #313B27",
"S#	c #40493D",
"T#	c #989A9E",
"U#	c #BEC2C7",
"V#	c #9DA3AA",
"W#	c #939DA5",
"X#	c #8F99A1",
"Y#	c #929AA1",
"Z#	c #8D969A",
"`#	c #B7C1C0",
" $	c #848E8B",
".$	c #485248",
"+$	c #4A583C",
"@$	c #3A4826",
"#$	c #485634",
"$$	c #8D9B82",
"%$	c #939E96",
"&$	c #919A9B",
"*$	c #8B939A",
"=$	c #A8B0B7",
"-$	c #B6BEC5",
";$	c #4C5655",
">$	c #4F5A4B",
",$	c #435037",
"'$	c #3C4B28",
")$	c #3A4A20",
"!$	c #2F3F13",
"~$	c #859376",
"{$	c #C3CDC9",
"]$	c #B7BFCA",
"^$	c #B5BCCA",
"/$	c #E2E6F5",
"($	c #E3E7F8",
"_$	c #DFE4F4",
":$	c #F0F5FD",
"<$	c #798274",
"[$	c #343E2B",
"}$	c #414A3E",
"|$	c #8F9094",
"1$	c #B2B6BC",
"2$	c #9CA2A9",
"3$	c #949EA6",
"4$	c #919AA5",
"5$	c #929B9F",
"6$	c #B4BEBA",
"7$	c #848E89",
"8$	c #505B4C",
"9$	c #495739",
"0$	c #3E4D28",
"a$	c #3B4929",
"b$	c #8A9780",
"c$	c #949E9B",
"d$	c #969EA4",
"e$	c #A0A9AB",
"f$	c #838D85",
"g$	c #515D4B",
"h$	c #4C5941",
"i$	c #414F31",
"j$	c #455433",
"k$	c #596747",
"l$	c #566348",
"m$	c #8F9A8B",
"n$	c #B2BABC",
"o$	c #A4ABB6",
"p$	c #A9B1BA",
"q$	c #ABB2BB",
"r$	c #DADFE8",
"s$	c #D5DBE2",
"t$	c #DEE4EB",
"u$	c #E9F0F0",
"v$	c #838D7C",
"w$	c #3F4935",
"x$	c #464F42",
"y$	c #898B8F",
"z$	c #9EA1A7",
"A$	c #91979E",
"B$	c #8F969F",
"C$	c #949EA8",
"D$	c #919AA7",
"E$	c #97A19B",
"F$	c #677267",
"G$	c #333F2D",
"H$	c #3C4A2A",
"I$	c #3D4C29",
"J$	c #414E33",
"K$	c #8C9889",
"L$	c #939C9E",
"M$	c #8C949D",
"N$	c #697178",
"O$	c #515A59",
"P$	c #485344",
"Q$	c #354229",
"R$	c #3C4A2E",
"S$	c #3D4B2D",
"T$	c #3E4C31",
"U$	c #9DA993",
"V$	c #BCC7BA",
"W$	c #A7B1AD",
"X$	c #BBC3CB",
"Y$	c #A7AEBA",
"Z$	c #B4BAC1",
"`$	c #B1B7BC",
" %	c #D6DDDF",
".%	c #F0F7F2",
"+%	c #939C8B",
"@%	c #656F5C",
"#%	c #5F685C",
"$%	c #828488",
"%%	c #90969D",
"&%	c #929BA6",
"*%	c #929BAA",
"=%	c #9199A9",
"-%	c #9299A5",
";%	c #939D9C",
">%	c #9DA79F",
",%	c #6D786B",
"'%	c #384531",
")%	c #3C4A2C",
"!%	c #3A482A",
"~%	c #3D4A35",
"{%	c #8C978F",
"]%	c #9197A7",
"^%	c #6C747A",
"/%	c #5F6867",
"(%	c #566152",
"_%	c #3A4630",
":%	c #445138",
"<%	c #45523A",
"[%	c #434F3B",
"}%	c #A0AB9E",
"|%	c #AEB5C3",
"1%	c #A4AABA",
"2%	c #939AA8",
"3%	c #9AA2AD",
"4%	c #B6BBC2",
"5%	c #B7BDC2",
"6%	c #CCD2D4",
"7%	c #DEE6E1",
"8%	c #919B8A",
"9%	c #4F584A",
"0%	c #7C7D84",
"a%	c #999CA4",
"b%	c #8F98A7",
"c%	c #8F9895",
"d%	c #98A29A",
"e%	c #677265",
"f%	c #333F2B",
"g%	c #4A583A",
"h%	c #627053",
"i%	c #8B9592",
"j%	c #939BA6",
"k%	c #848D91",
"l%	c #5D6665",
"m%	c #5D6567",
"n%	c #5E6768",
"o%	c #5E6766",
"p%	c #364139",
"q%	c #505C4A",
"r%	c #5E6B54",
"s%	c #6C7962",
"t%	c #A5B19F",
"u%	c #ABB5AB",
"v%	c #889094",
"w%	c #9AA2AB",
"x%	c #8F95A5",
"y%	c #9BA2B2",
"z%	c #B2B8C6",
"A%	c #B7BCC6",
"B%	c #B0B6BB",
"C%	c #787F7F",
"D%	c #626A60",
"E%	c #4F5944",
"F%	c #3A452B",
"G%	c #414B3A",
"H%	c #7D7E87",
"I%	c #9FA1AE",
"J%	c #979EA7",
"K%	c #8F99A5",
"L%	c #949F95",
"M%	c #687465",
"N%	c #38462D",
"O%	c #445330",
"P%	c #647252",
"Q%	c #919B95",
"R%	c #9EA7A6",
"S%	c #7E8981",
"T%	c #566250",
"U%	c #566154",
"V%	c #566056",
"W%	c #5D675D",
"X%	c #596457",
"Y%	c #4B5745",
"Z%	c #3C4834",
"`%	c #546249",
" &	c #69775E",
".&	c #737E6F",
"+&	c #B5BFB7",
"@&	c #97A0A1",
"#&	c #8F9899",
"$&	c #8C949B",
"%&	c #9FA6B1",
"&&	c #B2B7C1",
"*&	c #B3BABC",
"=&	c #666E69",
"-&	c #586251",
";&	c #515D3E",
">&	c #3F4B29",
",&	c #3B462E",
"'&	c #5E5F68",
")&	c #6B6E79",
"!&	c #808591",
"~&	c #8D979F",
"{&	c #8F99A3",
"]&	c #919A99",
"^&	c #76807B",
"/&	c #697568",
"(&	c #37442C",
"_&	c #445232",
":&	c #616F51",
"<&	c #5B6756",
"[&	c #6B756F",
"}&	c #6E7776",
"|&	c #747E7A",
"1&	c #5E695E",
"2&	c #49563F",
"3&	c #49563D",
"4&	c #495543",
"5&	c #495445",
"6&	c #5B6758",
"7&	c #616D5C",
"8&	c #4D5B42",
"9&	c #586356",
"0&	c #B0BAB5",
"a&	c #B0B9BB",
"b&	c #969EA2",
"c&	c #90999A",
"d&	c #91999D",
"e&	c #979FA5",
"f&	c #9DA4AD",
"g&	c #9EA5AE",
"h&	c #B0B5BD",
"i&	c #ABB2B2",
"j&	c #586157",
"k&	c #46503A",
"l&	c #576440",
"m&	c #56633D",
"n&	c #49543A",
"o&	c #525458",
"p&	c #53575C",
"q&	c #747A81",
"r&	c #8D989D",
"s&	c #919B97",
"t&	c #626D65",
"u&	c #546051",
"v&	c #4B5843",
"w&	c #37442E",
"x&	c #6E7B62",
"y&	c #5D6957",
"z&	c #4B564B",
"A&	c #4C5653",
"B&	c #4B5454",
"C&	c #495253",
"D&	c #3E4843",
"E&	c #2E3A26",
"F&	c #2E3B22",
"G&	c #2E3A28",
"H&	c #576351",
"I&	c #66725E",
"J&	c #364426",
"K&	c #485638",
"L&	c #3A472E",
"M&	c #495447",
"N&	c #B6C0BB",
"O&	c #ACB5B6",
"P&	c #929B9B",
"Q&	c #8C9599",
"R&	c #B8BFBF",
"S&	c #ADB5AE",
"T&	c #535C4B",
"U&	c #4E5B36",
"V&	c #697551",
"W&	c #545E46",
"X&	c #606362",
"Y&	c #626767",
"Z&	c #787E81",
"`&	c #8F9A9F",
" *	c #8F9A9D",
".*	c #667166",
"+*	c #4C5847",
"@*	c #4F5B45",
"#*	c #4F5C43",
"$*	c #4D5A44",
"%*	c #4D5A46",
"&*	c #525E4E",
"**	c #8D988E",
"=*	c #9EA7A4",
"-*	c #9BA4A6",
";*	c #939BA2",
">*	c #929B9D",
",*	c #8B9787",
"'*	c #8B9883",
")*	c #8B9689",
"!*	c #8B968B",
"~*	c #98A398",
"{*	c #606C58",
"]*	c #3B482F",
"^*	c #465439",
"/*	c #525F46",
"(*	c #5B675A",
"_*	c #A7B1AB",
":*	c #939CA0",
"<*	c #969EA0",
"[*	c #A2A8AB",
"}*	c #A4ACA7",
"|*	c #4F5A42",
"1*	c #4F5B3A",
"2*	c #55613F",
"3*	c #5F635B",
"4*	c #6E736F",
"5*	c #828A87",
"6*	c #9DA5A7",
"7*	c #96A1A4",
"8*	c #95A0A3",
"9*	c #95A0A1",
"0*	c #97A09D",
"a*	c #97A199",
"b*	c #535F50",
"c*	c #505D44",
"d*	c #758269",
"e*	c #283422",
"f*	c #3E4A3D",
"g*	c #DFE9E3",
"h*	c #EDF5F9",
"i*	c #EDF5FD",
"j*	c #EDF5FB",
"k*	c #EEF8F5",
"l*	c #EEF8F2",
"m*	c #EEF7F9",
"n*	c #EEF7FB",
"o*	c #E8F1F5",
"p*	c #F5FEFF",
"q*	c #2D382B",
"r*	c #77856C",
"s*	c #707C6F",
"t*	c #909A94",
"u*	c #9097A2",
"v*	c #8D94A2",
"w*	c #9097A4",
"x*	c #9398A1",
"y*	c #747C75",
"z*	c #6D7766",
"A*	c #4F5B3E",
"B*	c #384326",
"C*	c #3B4532",
"D*	c #53584B",
"E*	c #60665B",
"F*	c #727A75",
"G*	c #8A9394",
"H*	c #838D91",
"I*	c #848F90",
"J*	c #848F8E",
"K*	c #858F8A",
"L*	c #859184",
"M*	c #3F4C36",
"N*	c #515F43",
"O*	c #606E52",
"P*	c #5D6953",
"Q*	c #5D675F",
"R*	c #C9D2D1",
"S*	c #D2DAE3",
"T*	c #D2D9E5",
"U*	c #D3DCDE",
"V*	c #D3DBE4",
"W*	c #D3DBE6",
"X*	c #899293",
"Y*	c #59645B",
"Z*	c #5F6C55",
"`*	c #5A674E",
" =	c #657061",
".=	c #808A84",
"+=	c #838C8D",
"@=	c #90989C",
"#=	c #8F96A3",
"$=	c #858995",
"%=	c #858B8F",
"&=	c #6B736E",
"*=	c #626B5A",
"==	c #515D42",
"-=	c #454E3D",
";=	c #484D3B",
">=	c #394130",
",=	c #495248",
"'=	c #535E5F",
")=	c #576361",
"!=	c #57645F",
"~=	c #57645B",
"{=	c #576555",
"]=	c #424E3A",
"^=	c #425032",
"/=	c #616E55",
"(=	c #E7F3E3",
"_=	c #E0EAE7",
":=	c #B6BEC7",
"<=	c #B0B8C3",
"[=	c #B0B8BF",
"}=	c #B2B9C4",
"|=	c #D1DADB",
"1=	c #F5FFF7",
"2=	c #3E4A3B",
"3=	c #5F6961",
"4=	c #5B6564",
"5=	c #858E92",
"6=	c #8C9597",
"7=	c #8D959E",
"8=	c #586064",
"9=	c #545E5B",
"0=	c #485346",
"a=	c #3B4733",
"b=	c #5C674C",
"c=	c #6A755C",
"d=	c #5A6354",
"e=	c #444938",
"f=	c #3E4535",
"g=	c #4D5647",
"h=	c #525F56",
"i=	c #596659",
"j=	c #596757",
"k=	c #596755",
"l=	c #354325",
"m=	c #E0ECDA",
"n=	c #DFE8E7",
"o=	c #B2B8C8",
"p=	c #B3BAC3",
"q=	c #B6BEC9",
"r=	c #ACB3BC",
"s=	c #CCD5D9",
"t=	c #E6F0EC",
"u=	c #9AA697",
"v=	c #374332",
"w=	c #465243",
"x=	c #505B50",
"y=	c #5A645F",
"z=	c #8C9695",
"A=	c #8F9897",
"B=	c #56605A",
"C=	c #505B4E",
"D=	c #3B482D",
"E=	c #535E41",
"F=	c #717C61",
"G=	c #5D6156",
"H=	c #666D5D",
"I=	c #5C6653",
"J=	c #414D39",
"K=	c #4E5E44",
"L=	c #576B46",
"M=	c #5C6F4B",
"N=	c #4A593D",
"O=	c #3E4D34",
"P=	c #4D5C45",
"Q=	c #64735C",
"R=	c #546448",
"S=	c #37472B",
"T=	c #536249",
"U=	c #B5C3B1",
"V=	c #B9C6BF",
"W=	c #B3BEC2",
"X=	c #99A1A8",
"Y=	c #A0A8AF",
"Z=	c #B7BFC6",
"`=	c #ACB4BA",
" -	c #C0C8CC",
".-	c #626C69",
"+-	c #5B695B",
"@-	c #5D6965",
"#-	c #5D6967",
"$-	c #57645D",
"%-	c #616E65",
"&-	c #5D6A61",
"*-	c #576559",
"=-	c #424D3E",
"--	c #3F4D34",
";-	c #3B4A25",
">-	c #384821",
",-	c #41502B",
"'-	c #425030",
")-	c #5E6159",
"!-	c #707767",
"~-	c #5D6850",
"{-	c #354323",
"]-	c #394A27",
"^-	c #556940",
"/-	c #4F633C",
"(-	c #354526",
"_-	c #29391F",
":-	c #5C6B54",
"<-	c #6B7A63",
"[-	c #516044",
"}-	c #38482C",
"|-	c #5A6950",
"1-	c #B1C0AD",
"2-	c #B1BEB7",
"3-	c #AFBABB",
"4-	c #AFB7C0",
"5-	c #9DA4AF",
"6-	c #BAC1CA",
"7-	c #5D6569",
"8-	c #646E66",
"9-	c #5A6952",
"0-	c #4F5E4B",
"a-	c #4E5B52",
"b-	c #56625E",
"c-	c #556257",
"d-	c #4B584B",
"e-	c #364230",
"f-	c #344320",
"g-	c #33421B",
"h-	c #3E4D2A",
"i-	c #344126",
"j-	c #3F4837",
"k-	c #4F5348",
"l-	c #4E5641",
"m-	c #4D5D36",
"n-	c #6A7C56",
"o-	c #B1C3A4",
"p-	c #B0C1A9",
"q-	c #A3B49E",
"r-	c #A9B9A6",
"s-	c #62715C",
"t-	c #4D5D43",
"u-	c #435332",
"v-	c #384928",
"w-	c #5C6C52",
"x-	c #AEBAB4",
"y-	c #A1ACAD",
"z-	c #9FA7AD",
"A-	c #B6BFC3",
"B-	c #9EA8A0",
"C-	c #52604C",
"D-	c #5C6B56",
"E-	c #5E6C60",
"F-	c #56635A",
"G-	c #445146",
"H-	c #657269",
"I-	c #95A29B",
"J-	c #94A09A",
"K-	c #A8B4AE",
"L-	c #A9B6AB",
"M-	c #AAB9A4",
"N-	c #ABBBA3",
"O-	c #616E5A",
"P-	c #3B4639",
"Q-	c #454C47",
"R-	c #35392F",
"S-	c #39412C",
"T-	c #485435",
"U-	c #4F5E37",
"V-	c #738561",
"W-	c #ECFDE8",
"X-	c #EAF9ED",
"Y-	c #E3F2E6",
"Z-	c #F0FFF3",
"`-	c #5D6B5B",
" ;	c #1B2A13",
".;	c #324322",
"+;	c #364723",
"@;	c #57674B",
"#;	c #BECCBA",
"$;	c #919C9D",
"%;	c #A7AFB6",
"&;	c #C2C9D4",
"*;	c #F2FAFF",
"=;	c #CBD5D0",
"-;	c #263124",
";;	c #2E3C27",
">;	c #63725D",
",;	c #6E7C6C",
"';	c #465446",
");	c #1E2C20",
"!;	c #6A7770",
"~;	c #C3CECD",
"{;	c #C0CCCC",
"];	c #E9F4F5",
"^;	c #EBF7F3",
"/;	c #F0FDF2",
"(;	c #F2FFF2",
"_;	c #828D82",
":;	c #333D35",
"<;	c #383F3F",
"[;	c #53574F",
"};	c #6C775F",
"|;	c #93A281",
"1;	c #9FAE92",
"2;	c #C8D8CC",
"3;	c #C9D7D5",
"4;	c #C6D4D1",
"5;	c #C5D3CE",
"6;	c #8C998E",
"7;	c #7E8C7A",
"8;	c #617153",
"9;	c #47573D",
"0;	c #879683",
"a;	c #8C9892",
"b;	c #8F9B9B",
"c;	c #8F979D",
"d;	c #BDC5D0",
"e;	c #C9D1D9",
"f;	c #BEC8C7",
"g;	c #5A6954",
"h;	c #4D5C47",
"i;	c #687664",
"j;	c #6A776E",
"k;	c #808C88",
"l;	c #9DA9A9",
"m;	c #CAD4D8",
"n;	c #CCD8D6",
"o;	c #A8B5AC",
"p;	c #9FACA0",
"q;	c #6C776C",
"r;	c #4D5850",
"s;	c #4A5151",
"t;	c #616461",
"u;	c #62685F",
"v;	c #A5AEA0",
"w;	c #EFFCE8",
"x;	c #D6E4D4",
"y;	c #AAB8B3",
"z;	c #AAB7B9",
"A;	c #A7B4B9",
"B;	c #A6B4B4",
"C;	c #D2DEDA",
"D;	c #FCFFFC",
"E;	c #96A68C",
"F;	c #233317",
"G;	c #3D4C33",
"H;	c #546250",
"I;	c #515D56",
"J;	c #8D9899",
"K;	c #ABB3B9",
"L;	c #A9B0BE",
"M;	c #A6ADB8",
"N;	c #BBC4C5",
"O;	c #E9F4EE",
"P;	c #EDFBEA",
"Q;	c #2A3A20",
"R;	c #8B9A85",
"S;	c #BECBC2",
"T;	c #A3AEAF",
"U;	c #919B9F",
"V;	c #AEB9BA",
"W;	c #AAB6B2",
"X;	c #4E5C4C",
"Y;	c #606C5A",
"Z;	c #6F7A6E",
"`;	c #67696B",
" >	c #717676",
".>	c #A2A9A9",
"+>	c #DAE4E1",
"@>	c #C5D1CF",
"#>	c #A4B2B2",
"$>	c #A9B5BA",
"%>	c #B0BCC3",
"&>	c #B1BEC2",
"*>	c #C4CFD0",
"=>	c #D3DFD9",
"->	c #9DAB9B",
";>	c #56664E",
">>	c #515F4C",
",>	c #55625B",
"'>	c #7F8A8B",
")>	c #848C95",
"!>	c #8D95A0",
"~>	c #A1A9B2",
"{>	c #A6ADBA",
"]>	c #B5BCC8",
"^>	c #D0D9D6",
"/>	c #D5E3D5",
"(>	c #515F4A",
"_>	c #2E3E21",
":>	c #808F78",
"<>	c #B7C3BD",
"[>	c #A0ABAE",
"}>	c #949FA0",
"|>	c #ACBAAE",
"1>	c #697863",
"2>	c #5E6E52",
"3>	c #5A684A",
"4>	c #657257",
"5>	c #999BA1",
"6>	c #C4C7CF",
"7>	c #9EA4AB",
"8>	c #8A979C",
"9>	c #909DA2",
"0>	c #ABB7BF",
"a>	c #ADBAC1",
"b>	c #B6C0C6",
"c>	c #A9B4B5",
"d>	c #C3CFC9",
"e>	c #EAF8EA",
"f>	c #B5C3AF",
"g>	c #35442C",
"h>	c #414F3F",
"i>	c #54605A",
"j>	c #565E62",
"k>	c #7E868D",
"l>	c #969DA6",
"m>	c #A0A7B7",
"n>	c #BAC1CE",
"o>	c #ADB7B3",
"p>	c #AFBCAF",
"q>	c #354528",
"r>	c #73826D",
"s>	c #8C9894",
"t>	c #8E999C",
"u>	c #939EA1",
"v>	c #919D99",
"w>	c #919F8E",
"x>	c #6A7A5C",
"y>	c #5E704A",
"z>	c #4C5C34",
"A>	c #364524",
"B>	c #3A442F",
"C>	c #97989F",
"D>	c #B9BDC5",
"E>	c #9CA1AB",
"F>	c #8A929A",
"G>	c #8C969E",
"H>	c #8B959D",
"I>	c #98A2AA",
"J>	c #AAB4BE",
"K>	c #B3BDC8",
"L>	c #B6C0C8",
"M>	c #AEB8C0",
"N>	c #BEC8CE",
"O>	c #E1EDE9",
"P>	c #B7C6B1",
"Q>	c #324324",
"R>	c #3F502F",
"S>	c #54634C",
"T>	c #556259",
"U>	c #7C8786",
"V>	c #929D9C",
"W>	c #8A9594",
"X>	c #8B9494",
"Y>	c #8D9698",
"Z>	c #9AA3A5",
"`>	c #8A90A1",
" ,	c #A1A7BC",
".,	c #B4BACA",
"+,	c #B3BDB7",
"@,	c #ABB9A9",
"#,	c #384730",
"$,	c #71806D",
"%,	c #8C969C",
"&,	c #939DA7",
"*,	c #8D97A1",
"=,	c #8C9798",
"-,	c #647650",
";,	c #5D7041",
">,	c #45552D",
",,	c #465535",
"',	c #3A4431",
"),	c #88898F",
"!,	c #A0A3AB",
"~,	c #9197A0",
"{,	c #919BA3",
"],	c #8E98A2",
"^,	c #96A0AA",
"/,	c #A8B2BC",
"(,	c #AEB7C2",
"_,	c #C4CDD8",
":,	c #DCE8E8",
"<,	c #C1D0BB",
"[,	c #5A6B48",
"},	c #55673F",
"|,	c #435430",
"1,	c #3A4936",
"2,	c #525F54",
"3,	c #647168",
"4,	c #68746E",
"5,	c #57605D",
"6,	c #9FA5BA",
"7,	c #B4BACC",
"8,	c #A5ADB1",
"9,	c #68726D",
"0,	c #627060",
"a,	c #485744",
"b,	c #364432",
"c,	c #6B796B",
"d,	c #9AA6A4",
"e,	c #87919B",
"f,	c #616C6D",
"g,	c #566454",
"h,	c #4A5B35",
"i,	c #37491F",
"j,	c #93A27F",
"k,	c #DDEAD1",
"l,	c #9CA597",
"m,	c #7E8086",
"n,	c #94979F",
"o,	c #8F959C",
"p,	c #8E98A0",
"q,	c #ACB7BF",
"r,	c #B0BAC2",
"s,	c #C7D1D9",
"t,	c #E7F2F3",
"u,	c #BAC9B6",
"v,	c #566746",
"w,	c #64774C",
"x,	c #3F5127",
"y,	c #485840",
"z,	c #576159",
"A,	c #A0A6B9",
"B,	c #BBC1D1",
"C,	c #535D58",
"D,	c #445144",
"E,	c #3A483A",
"F,	c #727F76",
"G,	c #929CA4",
"H,	c #879297",
"I,	c #5A675A",
"J,	c #405034",
"K,	c #233315",
"L,	c #A5B19D",
"M,	c #F9FFF7",
"N,	c #B3BBB6",
"O,	c #7D7F83",
"P,	c #95999F",
"Q,	c #9499A1",
"R,	c #9FA9B1",
"S,	c #A3AEB3",
"T,	c #ABB6BB",
"U,	c #B1BCC1",
"V,	c #9DA8AD",
"W,	c #859091",
"X,	c #7D8A7F",
"Y,	c #65755D",
"Z,	c #5B6C49",
"`,	c #3E4F2A",
" '	c #59694A",
".'	c #556451",
"+'	c #69736E",
"@'	c #8B9496",
"#'	c #A2AAB3",
"$'	c #A5ACB7",
"%'	c #989FAC",
"&'	c #727982",
"*'	c #767F7F",
"='	c #455048",
"-'	c #4D5B4B",
";'	c #606C64",
">'	c #707C78",
",'	c #6B7775",
"''	c #727E7C",
")'	c #6C7974",
"!'	c #455249",
"~'	c #475547",
"{'	c #7F8E79",
"]'	c #889784",
"^'	c #ACB5B4",
"/'	c #838A8C",
"('	c #7E8084",
"_'	c #9FA2A8",
":'	c #969CA1",
"<'	c #8A9498",
"['	c #8B9699",
"}'	c #B7C1C7",
"|'	c #BDC8CB",
"1'	c #B0BBBE",
"2'	c #BEC9CC",
"3'	c #8D989B",
"4'	c #434E4F",
"5'	c #5A6463",
"6'	c #606A64",
"7'	c #5F6B5B",
"8'	c #2F3C23",
"9'	c #364522",
"0'	c #495833",
"a'	c #5B6A48",
"b'	c #303C2B",
"c'	c #3D483B",
"d'	c #576257",
"e'	c #58625C",
"f'	c #89928F",
"g'	c #ADB5B9",
"h'	c #C9D1D5",
"i'	c #8F979B",
"j'	c #35412F",
"k'	c #364530",
"l'	c #6F7D6D",
"m'	c #5B685D",
"n'	c #5A675C",
"o'	c #4B5947",
"p'	c #3B4735",
"q'	c #A2AE9F",
"r'	c #C5D0C8",
"s'	c #A2ABAD",
"t'	c #73797E",
"u'	c #6D6F73",
"v'	c #7E8287",
"w'	c #82888D",
"x'	c #8C979A",
"y'	c #8A9596",
"z'	c #8B9697",
"A'	c #8E9A98",
"B'	c #707C7A",
"C'	c #4B5655",
"D'	c #67706F",
"E'	c #9AA4A3",
"F'	c #99A2A2",
"G'	c #808A82",
"H'	c #7E8B75",
"I'	c #899777",
"J'	c #99A787",
"K'	c #8A987A",
"L'	c #7C8874",
"M'	c #727D6E",
"N'	c #525D50",
"O'	c #515C51",
"P'	c #757F79",
"Q'	c #7B8483",
"R'	c #848D8F",
"S'	c #949E9D",
"T'	c #707B73",
"U'	c #4D594A",
"V'	c #4B5841",
"W'	c #4A5A3B",
"X'	c #536347",
"Y'	c #566550",
"Z'	c #53614F",
"`'	c #4F6041",
" )	c #4A5A39",
".)	c #4D5C3C",
"+)	c #526044",
"@)	c #94A091",
"#)	c #A4ADAA",
"$)	c #747A7F",
"%)	c #5A5C60",
"&)	c #595C62",
"*)	c #71777C",
"=)	c #949D9F",
"-)	c #96A2A2",
";)	c #5C6866",
">)	c #54605E",
",)	c #525E5A",
"')	c #5C6864",
"))	c #45514D",
"!)	c #212D27",
"~)	c #5A6559",
"{)	c #F7FFFA",
"])	c #E6EEF6",
"^)	c #EEF5FF",
"/)	c #EBF4F3",
"()	c #EBF5EB",
"_)	c #F2FDEE",
":)	c #ECF8E6",
"<)	c #FAFFF2",
"[)	c #CAD6C2",
"})	c #2E3A2A",
"|)	c #374238",
"1)	c #49534D",
"2)	c #4F594F",
"3)	c #48543E",
"4)	c #3D4D25",
"5)	c #59693F",
"6)	c #5A6C42",
"7)	c #3C4D27",
"8)	c #2E3E1F",
"9)	c #304024",
"0)	c #354620",
"a)	c #394C1D",
"b)	c #3F5321",
"c)	c #617243",
"d)	c #687752",
"e)	c #889480",
"f)	c #99A0AC",
"g)	c #7E8486",
"h)	c #565955",
"i)	c #757C7C",
"j)	c #869192",
"k)	c #818D8B",
"l)	c #8A9692",
"m)	c #525E58",
"n)	c #59655F",
"o)	c #56635C",
"p)	c #747F70",
"q)	c #D9E4DC",
"r)	c #D6DDE8",
"s)	c #D5DBEB",
"t)	c #D6DDE6",
"u)	c #CFD8D9",
"v)	c #D7E0DD",
"w)	c #D0DAD2",
"x)	c #DAE6D9",
"y)	c #525C56",
"z)	c #707A77",
"A)	c #6F7976",
"B)	c #616B66",
"C)	c #576253",
"D)	c #3B4A23",
"E)	c #46562D",
"F)	c #77875D",
"G)	c #70825A",
"H)	c #596A46",
"I)	c #4F5F45",
"J)	c #596851",
"K)	c #475A2F",
"L)	c #4A5D2B",
"M)	c #566638",
"N)	c #596843",
"O)	c #808C78",
"P)	c #878E97",
"Q)	c #8C949F",
"R)	c #747B7D",
"S)	c #404533",
"T)	c #3C4333",
"U)	c #495246",
"V)	c #59635F",
"W)	c #535E5D",
"X)	c #5A675E",
"Y)	c #616E63",
"Z)	c #39463B",
"`)	c #3F4C41",
" !	c #364136",
".!	c #303B31",
"+!	c #E5F0E5",
"@!	c #D2DCD9",
"#!	c #B5BEBF",
"$!	c #B6BCC0",
"%!	c #B4BABF",
"&!	c #B0BAB9",
"*!	c #B9C2C1",
"=!	c #B5BEC2",
"-!	c #D9E2E4",
";!	c #E7F0F0",
">!	c #3F4E2E",
",!	c #36461E",
"'!	c #586742",
")!	c #E5F3D5",
"!!	c #DCE8D2",
"~!	c #C0CBBC",
"{!	c #AEB9AE",
"]!	c #CAD4D0",
"^!	c #AFB9B4",
"/!	c #5A684C",
"(!	c #5B6854",
"_!	c #58625A",
":!	c #4F555C",
"<!	c #5B606C",
"[!	c #555B62",
"}!	c #474C38",
"|!	c #3E4631",
"1!	c #495342",
"2!	c #5B665E",
"3!	c #59655D",
"4!	c #606E5E",
"5!	c #5A6856",
"6!	c #3E4C3C",
"7!	c #384638",
"8!	c #424D42",
"9!	c #343E36",
"0!	c #919C91",
"a!	c #EDF7F1",
"b!	c #D5DDE1",
"c!	c #B5BDC4",
"d!	c #B2B8BF",
"e!	c #B1B7BE",
"f!	c #B4BBC6",
"g!	c #D9E2E6",
"h!	c #E9F3F2",
"i!	c #757F77",
"j!	c #2F3B29",
"k!	c #445234",
"l!	c #5D6A4F",
"m!	c #D6E2CE",
"n!	c #DAE5DB",
"o!	c #BEC8C5",
"p!	c #AFB8BA",
"q!	c #D1D9DF",
"r!	c #DEE5F0",
"s!	c #6C7572",
"t!	c #5D685B",
"u!	c #586452",
"v!	c #596459",
"w!	c #5A6064",
"x!	c #4C515A",
"y!	c #8A8E86",
"z!	c #AFB5AA",
"A!	c #838D7E",
"B!	c #5A6655",
"C!	c #57634F",
"D!	c #3D4A31",
"E!	c #435039",
"F!	c #5D6C59",
"G!	c #637163",
"H!	c #A5AFA7",
"I!	c #CED5D3",
"J!	c #C6CDCD",
"K!	c #BFC5CA",
"L!	c #B5BDC6",
"M!	c #9A9FA6",
"N!	c #989EA5",
"O!	c #AEB5C1",
"P!	c #7A827B",
"Q!	c #2B3428",
"R!	c #757F6C",
"S!	c #CCD6C2",
"T!	c #C7D0C2",
"U!	c #B9C1BA",
"V!	c #B3BABA",
"W!	c #BBC1C6",
"X!	c #B0B5BF",
"Y!	c #B3B8C6",
"Z!	c #BEC6CF",
"`!	c #CED7D6",
" ~	c #B2BCB4",
".~	c #44503E",
"+~	c #3F4A40",
"@~	c #7C8387",
"#~	c #B2B7C3",
"$~	c #858A93",
"%~	c #999B9D",
"&~	c #C5CAC6",
"*~	c #889185",
"=~	c #4F5B47",
"-~	c #58654C",
";~	c #606E5C",
">~	c #BAC2BD",
",~	c #F6FCFE",
"'~	c #AFB4BD",
")~	c #969CA3",
"!~	c #959BA2",
"~~	c #B3B8C4",
"{~	c #B6BAC6",
"]~	c #DDE3EA",
"^~	c #79817C",
"/~	c #232B22",
"(~	c #899288",
"_~	c #D5DDD8",
":~	c #AAB1B1",
"<~	c #B2B8BD",
"[~	c #BABFC9",
"}~	c #B2B6C5",
"|~	c #B9BDCE",
"1~	c #ABB1BF",
"2~	c #C1C8D3",
"3~	c #CBD5D2",
"4~	c #373F33",
"5~	c #374031",
"6~	c #373F35",
"7~	c #878D92",
"8~	c #C9CEDA",
"9~	c #9E9FA8",
"0~	c #B8BCBF",
"a~	c #A4ACA5",
"b~	c #9BA894",
"c~	c #87947B",
"d~	c #323F26",
"e~	c #A3B1A1",
"f~	c #B4BEB6",
"g~	c #BEC5C4",
"h~	c #C5CBCF",
"i~	c #B6BBC4",
"j~	c #A3A8B4",
"k~	c #A4A9B5",
"l~	c #989BA5",
"m~	c #989BA3",
"n~	c #94989D",
"o~	c #8E9298",
"p~	c #91949A",
"q~	c #A2A6AB",
"r~	c #A7AAB0",
"s~	c #A6A9AF",
"t~	c #A2A5B1",
"u~	c #9FA4B0",
"v~	c #8E949B",
"w~	c #878D90",
"x~	c #686F6A",
"y~	c #535B53",
"z~	c #818886",
"A~	c #C3CACA",
"B~	c #BBC2C4",
"C~	c #B9BFC6",
"D~	c #9B9FAE",
"E~	c #A8ACBA",
"F~	c #BBC0CC",
"G~	c #C6CBD5",
"H~	c #C8CED3",
"I~	c #ABB2B0",
"J~	c #ABB1AB",
"K~	c #686F61",
"L~	c #4E544B",
"M~	c #868A8F",
"N~	c #A6A8B5",
"O~	c #82848F",
"P~	c #9899A2",
"Q~	c #BCBFC5",
"R~	c #B0B5B3",
"S~	c #C0C9BD",
"T~	c #99A593",
"U~	c #2D3927",
"V~	c #4F5A4D",
"W~	c #D2DFD6",
"X~	c #F4FEFA",
"Y~	c #C7CDD0",
"Z~	c #B3B9C0",
"`~	c #9DA2AC",
" {	c #8F949E",
".{	c #9EA0AB",
"+{	c #979AA2",
"@{	c #9A9EA3",
"#{	c #92959B",
"${	c #A1A5AA",
"%{	c #C3C7CA",
"&{	c #9C9FAC",
"*{	c #8D909C",
"={	c #545961",
"-{	c #4F5656",
";{	c #6C746F",
">{	c #8A9191",
",{	c #AAB0B5",
"'{	c #BAC0C7",
"){	c #B4B9C7",
"!{	c #B6BAC8",
"~{	c #B0B5C1",
"{{	c #BBC1CA",
"]{	c #EDF1F4",
"^{	c #EDF2EE",
"/{	c #848A7F",
"({	c #6D736A",
"_{	c #878B91",
":{	c #A0A2AF",
"<{	c #7C7F89",
"[{	c #919299",
"}{	c #A9ADB2",
"|{	c #A6AAAD",
"1{	c #A3ABA6",
"2{	c #464D48",
"3{	c #565F5C",
"4{	c #9BA7A5",
"5{	c #ADB6B7",
"6{	c #A9AFB4",
"7{	c #ADB0B6",
"8{	c #90939B",
"9{	c #8C8F97",
"0{	c #80848C",
"a{	c #7F8388",
"b{	c #7C7F85",
"c{	c #7D8186",
"d{	c #84888D",
"e{	c #919598",
"f{	c #8B8F94",
"g{	c #838592",
"h{	c #7D7F8C",
"i{	c #6B6F75",
"j{	c #5D6263",
"k{	c #5C615D",
"l{	c #515652",
"m{	c #747879",
"n{	c #AEB2B5",
"o{	c #A4A9AC",
"p{	c #979B9E",
"q{	c #929699",
"r{	c #9CA0A6",
"s{	c #A5AAB6",
"t{	c #ADB2C0",
"u{	c #B2B6C7",
"v{	c #D0D3DB",
"w{	c #C9CDCE",
"x{	c #6E7469",
"y{	c #707479",
"z{	c #828491",
"A{	c #686B75",
"B{	c #8C8E92",
"C{	c #BAC1C3",
"D{	c #A4AAAD",
"E{	c #6C7375",
"F{	c #696F71",
"G{	c #50585C",
"H{	c #4E5459",
"I{	c #85898E",
"J{	c #A0A3A9",
"K{	c #8A8D93",
"L{	c #51545A",
"M{	c #5F6268",
"N{	c #55595F",
"O{	c #5B5F64",
"P{	c #595D60",
"Q{	c #55595D",
"R{	c #565A60",
"S{	c #595C64",
"T{	c #5B5E66",
"U{	c #676A70",
"V{	c #727778",
"W{	c #2F3430",
"X{	c #9CA0A4",
"Y{	c #959A9B",
"Z{	c #919596",
"`{	c #919694",
" ]	c #95999D",
".]	c #A6ABB7",
"+]	c #B8BCCB",
"@]	c #BABFCB",
"#]	c #BBBEC6",
"$]	c #BDC1C2",
"%]	c #4A5047",
"&]	c #363C33",
"*]	c #4B4F52",
"=]	c #5C6068",
"-]	c #737576",
";]	c #8E9296",
">]	c #9A9EA1",
",]	c #A2A7A7",
"']	c #8C9091",
")]	c #5D6366",
"!]	c #5F6366",
"~]	c #606266",
"{]	c #787C7F",
"]]	c #878B8F",
"^]	c #7E8285",
"/]	c #8D9194",
"(]	c #76787C",
"_]	c #5D5E62",
":]	c #5C5D61",
"<]	c #535559",
"[]	c #57595D",
"}]	c #56575B",
"|]	c #585A5C",
"1]	c #595B5D",
"2]	c #595B5F",
"3]	c #616568",
"4]	c #4D524E",
"5]	c #353A36",
"6]	c #5D6261",
"7]	c #8A8E8F",
"8]	c #85898A",
"9]	c #868B8B",
"0]	c #868A8D",
"a]	c #7F858A",
"b]	c #A3A9AE",
"c]	c #A1A7A9",
"d]	c #A2A7A5",
"e]	c #9FA4A0",
"f]	c #555B52",
"g]	c #454B42",
"h]	c #585C5D",
"i]	c #4F5453",
"  . + @ # $ % & * = - ; > , ' ) ! ~ { ] ^ / ( _ : < [ } | 1 2 3 4 5 6 7 8 9 0 a b c d e f g h i ",
"j k l m n o p q r s t u v u w x y z A B C D E F G H I J K L M N O P Q R S T U V W X Y Z `  ...+.",
"@.#.$.%.&.*.=.-.;.>.,.t '.).!.~.{.].^./.(._.:.<.[.}.|.1.2.3.4.5.6.7.8.9.0.a.b.c.d.e.f.g.h.i.j.k.",
"l.m.n.o.p.q.r.s.t.u.v.w.x.y.z.A.B.C.D.E.F.G.H.I.J.K.L.M.N.O.v P.5.Q.R.S.T.U.V.W.' X.Y.Z.`. +U..+",
"++@+#+$+%+&+*+=+-+;+>+,+'+)+!+~+{+]+^+/+(+_+:+<+[+}+|+1+2+3+4+5+6+7+8+9+0+a+b+c+d+e+f+g+h+i+j+k+",
"l+m+n+o+p+q+r+s+t+u+v+w+x+y+z+A+B+C+D+E+F+G+H+I+J+K+L+M+N+O+P+Q+R+S+T+U+V+W+X+Y+Z+`+ @.@+@@@#@$@",
"%@&@*@=@-@;@>@,@'@)@!@~@{@]@^@/@(@_@:@<@[@}@|@1@2@3@4@5@6@7@8@9@0@a@b@c@d@e@f@g@h@i@j@k@l@m@n@o@",
"p@q@r@s@t@u@v@w@x@y@z@A@B@C@D@E@F@G@H@I@J@K@L@M@M@:+N@O@P@Q@R@S@T@U@U@V@W@X@Y@Z@`@ #.#+#@###K $#",
"p@%#&#K+*#=#-#;#>#,#;#'#)#!#~#{#]#^#/#(#J@K@L@M@M@_#L@:#I.<#[#}#|#1#2#3#4#5#6#7#8#9#0#a#b#c#d#e#",
"p@f#g#h#i#j#k#l#N@m#n#o#p#q#r#s#t#u#v#w#x#M@L@L@L@y#y#z#A#B#h#C#D#E#F#G#H#I#J#K#L#M#N#O#P#Q#R#S#",
"T#U#V#M@W#X#=#Y#Z#4@`# $.$+$@$#$$$%$&$L@Y#Y#L@L@L@*$L@=$-$Y#;$>$,$'$)$!$~${$]$'@^$/$($_$:$<$[$}$",
"|$1$2$2@3$4$4$Y#5$=@6$7$8$9$0$a$b$c$_+5$d$Y#Y#Y#Y#Y#L@d$e$f$g$h$i$j$k$l$m$n$o$p$q$r$s$t$u$v$w$x$",
"y$z$A$B$C$D$D$:@5$_@E$F$G$H$I$J$K$L$M$H+L@L@L@L@L@d$L@N$O$P$Q$R$S$T$U$V$W$X$Y$2@G+Z$`$ %.%+%@%#%",
"$%j+%%2@&%*%=%-%5$;%>%,%'%)%!%~%{%K@]%F+1@*$*$*$*$*$*$^%/%(%_%:%<%[%}%o+w@|%1%2%3%4%5%6%7%8%s 9%",
"0%a%S.I+4$b%=%-%5$c%d%e%f%g%h%F@i%j%<@I+k%l%l%l%m%n%o%;$p%q%r%s%t%u%C+v%w%x%y%z%'@A%B%C%D%E%F%G%",
"H%I%T.J%X#K%K%M@&$c$L%M%N%O%P%|#Q%5$Y#R%S%(%T%U%V%W%X%Y%Z%`% &.&+&o+@&#&$&M$%&r+s+&&*&=&-&;&>&,&",
"'&)&!&J%~&{&{&L@]&^&/&W@(&_&:&<&[&G@}&|&1&2&3&4&5&6&7&8&R$i$3&9&0&a&b&c&#&d&e&f&g&h&i&j&k&l&m&n&",
"o&p&q&d$r&X#X#d&s&t&u&v&w&J$x&y&z&A&B&C&D&E&F&E&G&H&I&3&J&K&L&M&N&O&D+&$L$P&L$Q&b&R&S&T&F%U&V&W&",
"X&Y&Z&D+`&`& *]&Q%.*+*@*#*$*%*&***=*-*;*>*,*'*)*!*~*S@{*]*^*/*(*_*O@:*>*<*>*>*Z#J#[*}*q |*1*2*k&",
"3*4*5*6*7*8*9*0*a*b*8@c*d*r%e*f*g*o.h*i*j*k*l*m*n*o*p*^&q*8&r*s*t*#&:*>*D+;*u*v*w*x*9+y*z*A*B*C*",
"D*E*F*G*H*I*J*K*L*g$M*N*O*P*(%Q*R*u+S*T*S*U*U*V*W*)@V*X*Y*Z*`* =.=+=5$L$@=:@K@#=#=$=%=&=*===u -=",
";=>=,=o%'=)=!=~={=]=9@^=J&/=(=_=:=,@,@<=[=n$n$t+}=s+<+|=1=U$F&2=3=4=5=c&6=5$Y#2@7=8=9=0=a=b=c=d=",
"e=f=g=3=h=i=j=j=k=/@3&^=l=O*m=n=[+o=o=t+3@m#s@p=s+q=r=s=t=u=v=w=x=y=z=<*G*A=P&&$A=B=C=E@D=E=F=c@",
"G=H=I=J=K=L=M=N=O=P=Q=R=S=T=U=V=W=q=%&}@H+X=Y=Z=[+t+-$`= -@&.-W%(%k=+-@-#-$-%-&-*-=---;->-,-'-w$",
")-!-~-{-]-^-/-(-_-:-<-[-}-|-1-2-3-4-5-2@:@Y#G+I.3@[=[=w@6-w#7-8-<&9-0-a-b-c-c-c-d-e-Q$f-g-h-i-j-",
"k-l-)+m-n-o-p-q-r-s-t-u-v-w-U=x-y-f&F+2@M@H+L@:+z-:+:+=$<+<=A-B-w=C-D-E-F-G-H-I-J-K-L-M-N-O-P-Q-",
"R-S-T-U-V-W-X-Y-Z-`- ;.;+;@;#;2-$;M$x#M@B$_#*$Y#$&Y#L@%;<+&;*;=;-;;;>;,;';);!;~;{;];^;/;(;_;:;<;",
"[;k@};|;1;2;3;4;5;6;7;8;.;9;0;a;b;7=-%M@2@_#_#c;c;c;c;%;4-d;e;f;_;0;g;h;i;j;k;l;t@m;n;o;p;q;r;s;",
"t;u;v;w;x;y;z;A;B;C;D;E;F;G;H;I;J;}@u*2@M@L@_#_#_#_#L@K;A#L;M;N;O;P;C-Q;R;S;T;U; *V;W;E-X;Y;Z;m ",
"`; >.>+>@>#>$>%>&>*>=>->h;;>>>,>'>)>!>:@:@Y#d&L@_#:@B$~>M;{>]>-$^>/>(>_>:><>[>U;}>W;|>1>2>3>4>T&",
"5>6>7>$&=#8>9>0>a>b>c>d>e>f>g>h>i>j>k>e&@=d&d&5$L@l>7=:@x#m>n>[=o>p>h;q>r>s>t>k#u>v>w>x>y>z>A>B>",
"C>D>E>F>G>H>I>J>K>L>M>N>O>P>Q>R>S>T>U>V>W>X>Y>Z>Z#d$M@u*`> ,.,s@+,@,C-#,$,v>%,&,*,=,w>-,;,>,,,',",
"),!,~,M${,*,],C$^,/,(,_,:,<,[,},|,1,2,3,4,5,}&P&L$d$}@K@]%6,7,8,9,0,a,b,c,d,`&D$e,f,g,h,i,j,k,l,",
"m,n,o,_#{,X#p,p,X#q,r,s,t,u,v,w,x,(-y,{=*-z,&.c%;%Z#y#x##=A,B,8,C,2,D,E,F,d,k#G,H,)=I,J,K,L,M,N,",
"O,P,Q,_#r&k#I>R,S,T,U,V,W,X,Y,Z,`,]- 'Q=.'f*r;+'|&@'b&#'$'%'&'*'='d--'c-;'>',''')'!'~'{']'a*^'/'",
"('_':'d&<'['j#}'|'1'2'3'4'5'6'7'8'9'0'a'9$b'c'd'e'f'&$g'h'i'B&V%j'k'>;l'm'c-n'g,o'Z%p'q'r's';*t'",
"u'v'w'd&x'<'<'y'y'z'A'B'C'D'E'F'G'H'I'J'K'L'M'N'O'P'Q'R'S'T'U'V'+$W'X'Y'>>Z'S>`' ).)+)@)#)B$j%$)",
"%)&)*)=)-)}>J;;)>),)')))!)~){)])^)/)()_):)<)[)})|)1)^#^#2)3)z+4)5)6)7)8)9)(-0)a)b)c)d)e)c$!>f)g)",
"h)l i)6=j)k)l)m)n)o)o)I;h=p)q)r)s)t)u)v)w)x)!#d'y)z)A)B)C)9$D)E)F)G)H)I)J):-`'K)L)M)N)O)K*P)Q)R)",
"S)T)U)V)W)X)Y)Z)`) !.!_;+!@!#!p=p=4%$!%!*&&!*!g'=!-!;!P'v=>!,!'!)!!!~!{!]!/)^!7&/!S$D=(!_!:!<![!",
"}!|!1!2!3!4!5!6!7!8!9!0!a!b!c!J.c!d!e!h&e!s@Z=<=f!g!h!i!j!k!_&l!m!n!o!p!q!r!<+s!t!a=~%u!v!w!<!x!",
"y!z!A!B!C!D!E!F!G!H!I!J!K!J.L!J.H+M!M!N!N!@=X=O!q=t$D P!Q!R!S!T!U!V!W!X!Y!,@Z!`! ~=-X@.~+~@~#~$~",
"%~&~*~=~-~{#L&;~(*>~,~}+'~A%A%Z$N!)~)~!~Q,:'N!~~{~]~,~^~/~(~B _~:~<~[~}~|~1~2~n*3~:;4~5~6~7~8~x*",
"9~0~a~b~c~d~J=e~f~g~h~i~j~k~l~m~n~_ o~p~q~r~s~t~u~v~w~x~y~z~A~B~`$C~P D~E~}~F~G~H~I~J~K~L~M~N~O~",
"P~Q~R~S~T~U~V~W~X~Y~Z~`~ {l~.{+{P,@{#{n~${%{1$&{*{={-{=&;{>{<~,{'{C~V#x*u~){!{~{{{]{^{/{({_{:{<{",
"[{}{|{b#1{2{3{4{5{6{7{m~8{9{0{a{b{c{b{v'd{e{f{g{h{i{j{k{l{m{n{|{o{|{p{q{r{s{t{u{Y!v{w{x{L~y{z{A{",
"B{j+r~C{D{E{F{G{H{I{J{j+J{K{L{M{N{p&&)O{P{Q{R{S{T{U{V{l{W{Y&X{(  +Y{Z{`{ ] {.]+]@]#]$]%]&]*]=]L{",
"-];]>],]'])])]!]~]{]]]^]/](]_]:]<][]}]}]|]1]1]2]2]3]Y&4]5]6]7]8]7]9]9]9]0]a]Q,b]c]d]e]f]g]4]h]i]"};
