/* XPM */
static char * Walltest1_xpm[] = {
"48 48 193 2",
"  	c #696969",
". 	c #666666",
"+ 	c #6B6B6B",
"@ 	c #6A6A6A",
"# 	c #646464",
"$ 	c #616161",
"% 	c #3F3F3F",
"& 	c #656565",
"* 	c #686868",
"= 	c #5F5F5F",
"- 	c #4F4F4F",
"; 	c #424242",
"> 	c #4B4B4B",
", 	c #636363",
"' 	c #6F6F6F",
") 	c #6C6C6C",
"! 	c #6D6D6D",
"~ 	c #535353",
"{ 	c #929292",
"] 	c #909090",
"^ 	c #939393",
"/ 	c #8E8E8E",
"( 	c #868686",
"_ 	c #777777",
": 	c #888888",
"< 	c #8C8C8C",
"[ 	c #8F8F8F",
"} 	c #8D8D8D",
"| 	c #525152",
"1 	c #818181",
"2 	c #858585",
"3 	c #898989",
"4 	c #878787",
"5 	c #7E7E7E",
"6 	c #727272",
"7 	c #808080",
"8 	c #848484",
"9 	c #8B8B8B",
"0 	c #3B3B3B",
"a 	c #4D4D4D",
"b 	c #7D7D7D",
"c 	c #7F7F7F",
"d 	c #828282",
"e 	c #5C5C5C",
"f 	c #7A7A7A",
"g 	c #444444",
"h 	c #414141",
"i 	c #737373",
"j 	c #5A5A5A",
"k 	c #707070",
"l 	c #5D5D5D",
"m 	c #767676",
"n 	c #717171",
"o 	c #3D3D3D",
"p 	c #787878",
"q 	c #747474",
"r 	c #575757",
"s 	c #373737",
"t 	c #494949",
"u 	c #797979",
"v 	c #404040",
"w 	c #3E3E3E",
"x 	c #484848",
"y 	c #4E4E4E",
"z 	c #4C4C4C",
"A 	c #474747",
"B 	c #505050",
"C 	c #585858",
"D 	c #565656",
"E 	c #555555",
"F 	c #454545",
"G 	c #363636",
"H 	c #343434",
"I 	c #313131",
"J 	c #383838",
"K 	c #333333",
"L 	c #3A3A3A",
"M 	c #393939",
"N 	c #949494",
"O 	c #D9D9D9",
"P 	c #CBCBCB",
"Q 	c #D3D3D3",
"R 	c #D0D0D0",
"S 	c #CFCFCF",
"T 	c #CECECE",
"U 	c #CDCDCD",
"V 	c #CCCCCC",
"W 	c #ACACAC",
"X 	c #B8B8B8",
"Y 	c #D4D4D4",
"Z 	c #D2D2D2",
"` 	c #DBDBDB",
" .	c #AAAAAA",
"..	c #B0B0B0",
"+.	c #B7B7B7",
"@.	c #B1B1B1",
"#.	c #AFAFAF",
"$.	c #B6B6B6",
"%.	c #ADADAD",
"&.	c #B2B2B2",
"*.	c #A7A6A7",
"=.	c #B3B3B3",
"-.	c #B4B4B4",
";.	c #BDBDBD",
">.	c #626262",
",.	c #7B7B7B",
"'.	c #959595",
").	c #979797",
"!.	c #464646",
"~.	c #969696",
"{.	c #545454",
"].	c #999999",
"^.	c #9A9A9A",
"/.	c #9D9D9D",
"(.	c #9C9C9C",
"_.	c #A3A3A3",
":.	c #9E9E9E",
"<.	c #A2A2A2",
"[.	c #303030",
"}.	c #5E5E5E",
"|.	c #DDDDDD",
"1.	c #2F2F2F",
"2.	c #D6D6D6",
"3.	c #C8C8C8",
"4.	c #C7C7C7",
"5.	c #C9C9C9",
"6.	c #323232",
"7.	c #D7D7D7",
"8.	c #D5D5D5",
"9.	c #ABABAB",
"0.	c #A8A8A8",
"a.	c #A1A1A1",
"b.	c #ACADAA",
"c.	c #ABACA9",
"d.	c #AAAAA8",
"e.	c #AFAFAD",
"f.	c #ADAEAB",
"g.	c #A4A5A2",
"h.	c #A9A9A9",
"i.	c #A5A5A5",
"j.	c #A4A4A4",
"k.	c #878785",
"l.	c #888986",
"m.	c #8B8B89",
"n.	c #8C8C8A",
"o.	c #8E8E8C",
"p.	c #8D8D8B",
"q.	c #939391",
"r.	c #848482",
"s.	c #80807E",
"t.	c #868684",
"u.	c #8F908D",
"v.	c #393937",
"w.	c #535351",
"x.	c #7F7F7D",
"y.	c #7E7E7C",
"z.	c #858583",
"A.	c #898A87",
"B.	c #383836",
"C.	c #575855",
"D.	c #828380",
"E.	c #929290",
"F.	c #343532",
"G.	c #52524F",
"H.	c #7B7C79",
"I.	c #767674",
"J.	c #81827F",
"K.	c #9B9B9B",
"L.	c #4E4E4C",
"M.	c #71716F",
"N.	c #696967",
"O.	c #6C6D6A",
"P.	c #6D6E6B",
"Q.	c #70706E",
"R.	c #373735",
"S.	c #4F504D",
"T.	c #646562",
"U.	c #656663",
"V.	c #686866",
"W.	c #40403E",
"X.	c #555553",
"Y.	c #424340",
"Z.	c #41423F",
"`.	c #50514E",
" +	c #A0A0A0",
".+	c #B1B1AF",
"++	c #B2B3B0",
"@+	c #BBBBBB",
"#+	c #CCCCCA",
"$+	c #C5C5C3",
"%+	c #C6C6C4",
"&+	c #C9CAC7",
"*+	c #CBCBC9",
"        . + @ # $ % % $ # & . *                           * = - ; > # *         * $ , ' ) ! ' ~ ",
"{ { { { ] ^ / ( _ % % _ : < [ ^ { { { { { { { { { { { { ^ } ( * % | 1 2 { { { { 3 1 2 ] { ^ { $ ",
"} } } } } } 4 5 6 % % 6 7 8 9 / 9 9 9 9 9 9 9 9 9 9 9 9 [ 7 1 & 0 a 1 b 3 3 3 3 4 c d / { < / e ",
"3 { } / [ { < 1 f g h i 7 2 } ] / / 3 3 ] ] [ [ [ [ / / 3 1 8 # 0 ~ 1 1 / / / / / / / / 9 } { j ",
"4 ] 9 < < < 4 d _ g h k 7 8 3 < < < ] / < < 9 9 9 9 3 3 ( c 2 . 0 | 5 b 9 9 9 9 9 9 9 9 : : [ l ",
"@ i ! ' m n k 6 ! % o . ' k 6 i m p } 9 q q i i i i 6 6 n ) q r s t i n i i i i i i i i i k u - ",
"* n + ) n + ) i @ v w , ' ! ' ! ' ' } } k k ' ' ' ' ! ! ! @ q j s x k ) k k k k k k k k 6 + _ | ",
"e e x a y y - z a A A a | B | B C r D E ~ y y ~ > - a B - y | y w F - r j j j j | B a z | - y g ",
"- a ; w G H G I J H H J J s J s t ; J I J K K J G w w w G H J H L M J G F F F F 0 L s G K K s J ",
"' ) z 0 # : 7 c 1 8 8 1 1 7 1 7 2 2 8 8 8 c c 8 n M g u 1 1 2 7 7 1 8 2 9 9 9 3 4 2 d 1 ( 8 8 C ",
"N ^ z s < O P Q P R R P S T S U V U S R R V V R W L a X T U R U T T S S T T T T Y Z S U V Q ` 6 ",
"3 } | s 8  ...+.@.+.+.@.@...@.........#.$.#.%.&.[ w t *.$.=.-...X $.-.&.&.&.&.@.@.@.&.....=.;.+ ",
"3 } | s $ 7 1 4 3 : : 3 9 9 < 9 9 9 9 3 9 ( d d k J F 4 4 4 < 3 9 < / / 3 3 3 9 9 3 9 < } / < ~ ",
"3 } | s @ 8 8 [ / [ [ / < 9 < 9 9 9 9 3 ] / 4 c 6 J F 3 ] / ] < } < } } } / / / { : 3 ] { / [ l ",
"3 } | s >.,.1 '.4 ! ! 4 ] [ ] [ [ [ [ / [ [ ( u n w t : ).[ 9 7 ! _ ( ] / / / / < 7 7 < 3 2 '.E ",
"3 } | s , c d [ 3 ! ' 4 [ { [ } } } } } / { 8 5 ' 0 A ( [ } 9 : & p / 3 < < < < d 7 c 3 9 ( [ C ",
"3 } | s , c d [ / 8 1 d 1 : } [ } } } } / { 8 5 ' 0 A ( [ } 9 : 5 ( ] 3 < < < < 3 9 3 / [ 9 N l ",
"3 } | s , c d [ ] [ 9 c 5 ( } [ } } } } / { 8 5 ' 0 A ( [ } 9 : / / { 3 < < < < } ] [ } / 3 ^ e ",
"3 } | s , c d [ { 3 } 4 ( 9 } } } } } } / { 8 5 ' 0 A ( [ } 9 : [ 3 / } < < < < : } [ } / 3 ^ e ",
"9 ^ B L >.c 2 ^ [ / / / / ] ] / / / / / / / d d n o !.4 / / / / [ / < [ / [ [ } / 9 ] / / 3 N j ",
"9 ^ B L # 5 c 9 2 d d 8 8 ( ( 8 8 8 8 8 8 2 f b ) w F 5 2 2 2 2 ( 2 d ( 8 2 9 / } 2 3 2 ( d 3 C ",
"9 ^ B L j k + 6 ' ! ! ! ! k k ! ! ! ! ! ) k   ! & % g k k k k k n k ! n + 6 : ~.1 k k ' n ! 6 a ",
"9 ^ B L e k . @ ! ) + ) ) ' ' ) ) ) ) ) + k + k $ v ; & k ' k ' k ' ) k ) ! ,.} 5 @ + + ! ) ) B ",
"z t !.g t t t t x C r A x > > t A A A !.!.F A A A ; ; !.F F g B l j {.E z > a t x A x ~ ~ z z ; ",
"0 L M J s s s s 0 A !.L L o % ; L L L M M J L L o J s L J L s w z t !.x % M v % w J L a ; L M M ",
"~.).].^.^.^.^.^.)./.(.~._.! s j ].].].).).~.].]./.].].(.].:.).~.:././.<.} ~.$ [.! <.~.].(.:.^.}.",
"P T Z Y S S S S Z Y Q R |.2 1.' S S S T T U S S 2.Z Z Y S 2.T 3.4.3.5.S 3.U ' 6.} 7.T O S P 8.q ",
"*.@.9.W 0.0.0.0.9.9.#.a.0.! % , a.a.b.c.d.e.f.g.W W W  . . .9.0. .h.0.9.a.*.$ H q 0.i.j._.9.=.& ",
"1 / < [ 9 9 9 9 < } [ 1 _ e M B b ,.k.k.l.m.n.l.3 3 3 4 4 4 : 2 4 ( 2 : _ b r s e d c 9 ( < : ~ ",
"2 [ 3 9 / / / / } } ] d 4 >.0 D 8 d o.o.p.m.o.q.{ { { [ [ [ ] } [ / } ] c c C L $ 1 5 ] < } < = ",
"3 [ d 5 } } } } 3 9 } c 1 = L {.d d o.p.r.s.t.u.] { { / / / [ < / } < [ 1 2 B w e d c < : : ).e ",
"} } 7 7 < < < < 9 < / 7 7 }.v.w.r.x.m.o.y.y.z.u./ / / } < } / } } } } 9 5 1 {.J l 8 7 } / < { }.",
"( < ( 9 < < < < 9 < / 7 7 }.v.w.r.x.m.o.l.A.m.p./ / / / N u i 2 } } } 9 5 1 {.J l 8 7 } / < { }.",
"( } 3 ] < < < < 9 < / 7 7 }.v.w.r.x.m.o.n.u.u.n./ / / / ).m ) 1 } } } 9 5 1 {.J l 8 7 } / < { }.",
"< ] 9 / < < < < 9 < / 7 7 }.v.w.r.x.m.o.A.m.p.n.} / / / N 8 5 2 } } } 9 5 1 {.J l 8 7 } / < { }.",
"/ 9 [ } [ [ [ [ < [ } 8 4 }.B.C.t.D.u.q.o.u.E.u.[ ] ] ] [ [ [ [ [ [ [ [ 1 c {.M >.d 8 9 ] / '.}.",
"3 3 ( 7 c c c c c 1 7 ,.b C F.G.H.I.s.D.y.x.J.x.c 7 7 7 1 1 1 7 7 c c c u u ~ L e ,.f 7 7 c d E ",
"/ K.n ' ' ' ' ' n ' k q 6 D F.L.M.N.M.M.O.P.Q.P.! ' ' ' k k k k ' ' ' ' ) n - o E n ! n ' ' ' a ",
"p c k }.* * * *   &   6 ! D R.S.P.T.N.N.T.U.V.U.& . . . & & & & . . . . # + y w - @ # . *   . a ",
"h L % v a {.y w g v ; - | x ; ; ; ; W.W.L.S.w.X.y E - % o w % ; !.% w w ; ; ; ; ; 0 ; | | g % w ",
"h g v F a | y g F % % ~ ~ > !.x g g Y.Z.`.w.X.C.- {.B F F !.; ; o 0 > v ; ; ; ; A ; !.| E v x h ",
" .@.$.=.$.+.$.=. +v h ].-.#.%.@.&.=..+.+c.f..+++$.+.$.&.&.%.$._ o l h. .-.-.-.-.-.=.-.+.$.&.$.k ",
"S 5.5.U P 5.P U @+y 0 0.T P P R T T #+#+$+%+&+*+V P V T S V S } 6.= 4.4.P P P P V U V 5.T Z 8.' ",
"a.a.a.a.<._./.'.9 A v 8 N '.a.a.a.a.:.:.].'.].:.a. +a._.a.N ].q H B ] ].:.:.:.:./.:. + +a.K.i.= ",
"3 3 3 3 4 : 8 f p ; 0 n 1 d / / 3 3 4 4 8 7 8 3 3 : 3 < 3 b 1 l w y ,.p 3 3 3 3 < 4 3 ] } 4 ] r ",
"9 9 9 9 } / 3 7 u t h 6 d 8 [ [ 9 9 : : 4 8 4 } 9 3 9 } 9 5 d }.o - 1 7 9 9 9 9 < : 2 d c 4 [ j ",
"{ { { { [ ] < d ,.F o i 8 2 ] ] ] ] / / [ < [ '.] [ ] ^ ] 8 : # J a d 8 ^ ^ ^ ^ [ N ( k n } '.C ",
"7 7 7 7 ,.,.,.,.+ h h + m f 5 1 c c b 5 5 5 c 5 5 b 5 7 c q ,.j o y ! n c c c c f 8 f . @ 1 4 C "};
