/* XPM */
static char * Walltest2_xpm[] = {
"48 48 1667 2",
"  	c #5B3B2F",
". 	c #633927",
"+ 	c #6A3721",
"@ 	c #69361E",
"# 	c #65381E",
"$ 	c #62391E",
"% 	c #643D26",
"& 	c #593320",
"* 	c #5A3828",
"= 	c #503022",
"- 	c #432114",
"; 	c #522C1D",
"> 	c #603323",
", 	c #633420",
"' 	c #653825",
") 	c #633925",
"! 	c #653A28",
"~ 	c #663B2A",
"{ 	c #623826",
"] 	c #603620",
"^ 	c #60371C",
"/ 	c #562F16",
"( 	c #442512",
"_ 	c #452818",
": 	c #5D3626",
"< 	c #643726",
"[ 	c #653624",
"} 	c #633623",
"| 	c #663928",
"1 	c #5D301F",
"2 	c #633625",
"3 	c #653827",
"4 	c #683926",
"5 	c #603727",
"6 	c #69362E",
"7 	c #773527",
"8 	c #7D341D",
"9 	c #7F3215",
"0 	c #7C3413",
"a 	c #7C3415",
"b 	c #702817",
"c 	c #6B291D",
"d 	c #5E2015",
"e 	c #470B00",
"f 	c #591B0E",
"g 	c #6C2B18",
"h 	c #75301A",
"i 	c #80351A",
"j 	c #823418",
"k 	c #82341A",
"l 	c #803319",
"m 	c #7E3016",
"n 	c #7B3013",
"o 	c #722D0B",
"p 	c #62270B",
"q 	c #401302",
"r 	c #421506",
"s 	c #682E18",
"t 	c #722D15",
"u 	c #7D3013",
"v 	c #833113",
"w 	c #803014",
"x 	c #83331A",
"y 	c #803016",
"z 	c #79290F",
"A 	c #7C2C13",
"B 	c #7F2E15",
"C 	c #823219",
"D 	c #82341C",
"E 	c #7C3220",
"F 	c #6F3329",
"G 	c #71352C",
"H 	c #853527",
"I 	c #893219",
"J 	c #8B3313",
"K 	c #8B330F",
"L 	c #882F19",
"M 	c #7B2313",
"N 	c #712214",
"O 	c #61160B",
"P 	c #510B00",
"Q 	c #631B0A",
"R 	c #742A15",
"S 	c #8B3215",
"T 	c #8E3111",
"U 	c #90310F",
"V 	c #913210",
"W 	c #8D2F0D",
"X 	c #892D0C",
"Y 	c #7D2A08",
"Z 	c #712A10",
"` 	c #491106",
" .	c #4F180F",
"..	c #702612",
"+.	c #7F260B",
"@.	c #8D2B0A",
"#.	c #932E0C",
"$.	c #8F2D0F",
"%.	c #903013",
"&.	c #8D2E11",
"*.	c #86270A",
"=.	c #8A2A0D",
"-.	c #8C2D0F",
";.	c #8E2F12",
">.	c #8C3117",
",.	c #853120",
"'.	c #74332C",
").	c #703428",
"!.	c #833220",
"~.	c #883116",
"{.	c #8A320E",
"].	c #8A330C",
"^.	c #8A3210",
"/.	c #8A3018",
"(.	c #7F2A17",
"_.	c #722514",
":.	c #580F01",
"<.	c #5D1704",
"[.	c #722811",
"}.	c #853213",
"|.	c #883011",
"1.	c #81290A",
"2.	c #892F0D",
"3.	c #90310D",
"4.	c #91310B",
"5.	c #94330D",
"6.	c #872B08",
"7.	c #7B2509",
"8.	c #6E2314",
"9.	c #4B110E",
"0.	c #490C0A",
"a.	c #732315",
"b.	c #81230C",
"c.	c #92270B",
"d.	c #952B0D",
"e.	c #8A2F13",
"f.	c #863218",
"g.	c #7D331F",
"h.	c #6E352A",
"i.	c #6E3023",
"j.	c #802C1B",
"k.	c #852E12",
"l.	c #86300D",
"m.	c #84310F",
"n.	c #823217",
"o.	c #762913",
"p.	c #6C2615",
"q.	c #591505",
"r.	c #541202",
"s.	c #5E1A08",
"t.	c #6E260F",
"u.	c #782D12",
"v.	c #843011",
"w.	c #883415",
"x.	c #863314",
"y.	c #893516",
"z.	c #852F0E",
"A.	c #892F0B",
"B.	c #8B310E",
"C.	c #7F2908",
"D.	c #702208",
"E.	c #682414",
"F.	c #4E1310",
"G.	c #4E110F",
"H.	c #6D2214",
"I.	c #7C220C",
"J.	c #8B260B",
"K.	c #8E2A0C",
"L.	c #882D10",
"M.	c #74311A",
"N.	c #643427",
"O.	c #6C2A1E",
"P.	c #711D05",
"Q.	c #701E03",
"R.	c #6E1F03",
"S.	c #6B2005",
"T.	c #6B260C",
"U.	c #581A04",
"V.	c #531805",
"W.	c #4B1000",
"X.	c #4B0E00",
"Y.	c #521000",
"Z.	c #5C1401",
"`.	c #621600",
" +	c #6F2004",
".+	c #711F02",
"++	c #7D2B0E",
"@+	c #843215",
"#+	c #7C2A0C",
"$+	c #732204",
"%+	c #712103",
"&+	c #712105",
"*+	c #732307",
"=+	c #651C00",
"-+	c #541600",
";+	c #521A06",
">+	c #410F00",
",+	c #461201",
"'+	c #571804",
")+	c #611A02",
"!+	c #6E1F01",
"~+	c #752102",
"{+	c #752104",
"]+	c #752006",
"^+	c #702409",
"/+	c #672911",
"(+	c #5B3021",
"_+	c #67271B",
":+	c #6F1E0E",
"<+	c #6A1E08",
"[+	c #661E07",
"}+	c #661E09",
"|+	c #621F0B",
"1+	c #632714",
"2+	c #501806",
"3+	c #4D180A",
"4+	c #4C170B",
"5+	c #4D160B",
"6+	c #501509",
"7+	c #551506",
"8+	c #571301",
"9+	c #69210C",
"0+	c #692208",
"a+	c #6B2108",
"b+	c #792F16",
"c+	c #873B23",
"d+	c #782C14",
"e+	c #6D230C",
"f+	c #68200B",
"g+	c #66210D",
"h+	c #65210D",
"i+	c #65210F",
"j+	c #67240F",
"k+	c #5B1C08",
"l+	c #481404",
"m+	c #4A1D0D",
"n+	c #411403",
"o+	c #4A1807",
"p+	c #4E1904",
"q+	c #571B04",
"r+	c #642003",
"s+	c #6B2204",
"t+	c #6C2106",
"u+	c #6C2108",
"v+	c #6C200A",
"w+	c #67220C",
"x+	c #5C2614",
"y+	c #512F24",
"z+	c #572313",
"A+	c #5A1704",
"B+	c #4D1300",
"C+	c #4C1602",
"D+	c #4E1506",
"E+	c #4F150B",
"F+	c #4C120D",
"G+	c #470F0B",
"H+	c #4F1917",
"I+	c #481411",
"J+	c #45110E",
"K+	c #46130E",
"L+	c #48130C",
"M+	c #4C1508",
"N+	c #501708",
"O+	c #531809",
"P+	c #541709",
"Q+	c #5B1B0E",
"R+	c #5A170C",
"S+	c #541005",
"T+	c #541206",
"U+	c #54160B",
"V+	c #4D1108",
"W+	c #50160E",
"X+	c #49110A",
"Y+	c #4E1610",
"Z+	c #4A1008",
"`+	c #54180F",
" @	c #4A120A",
".@	c #441716",
"+@	c #411818",
"@@	c #421512",
"#@	c #471610",
"$@	c #430F01",
"%@	c #4C1100",
"&@	c #571902",
"*@	c #5D1D05",
"=@	c #561701",
"-@	c #561705",
";@	c #561607",
">@	c #561609",
",@	c #57170A",
"'@	c #571708",
")@	c #571806",
"!@	c #52190A",
"~@	c #481B13",
"{@	c #3F2422",
"]@	c #532210",
"^@	c #541501",
"/@	c #451500",
"(@	c #411200",
"_@	c #461105",
":@	c #460800",
"<@	c #4B0D04",
"[@	c #480D01",
"}@	c #480D00",
"|@	c #470C00",
"1@	c #470D00",
"2@	c #460C00",
"3@	c #4A0E00",
"4@	c #501200",
"5@	c #551500",
"6@	c #4B0A00",
"7@	c #4A0600",
"8@	c #490500",
"9@	c #4D0B00",
"0@	c #4B0F03",
"a@	c #440C04",
"b@	c #491510",
"c@	c #44120E",
"d@	c #400F0B",
"e@	c #410D08",
"f@	c #491108",
"g@	c #461107",
"h@	c #3E0C09",
"i@	c #3D0B07",
"j@	c #3F0A00",
"k@	c #3C0300",
"l@	c #440800",
"m@	c #4B0B00",
"n@	c #541000",
"o@	c #581100",
"p@	c #530E00",
"q@	c #530D00",
"r@	c #530C00",
"s@	c #4A0400",
"t@	c #4A0500",
"u@	c #3F0F04",
"v@	c #422521",
"w@	c #5E2B18",
"x@	c #64230E",
"y@	c #4E1A07",
"z@	c #431102",
"A@	c #4A1308",
"B@	c #4E1101",
"C@	c #5F1700",
"D@	c #7E3112",
"E@	c #823514",
"F@	c #843611",
"G@	c #84340B",
"H@	c #853406",
"I@	c #863506",
"J@	c #843301",
"K@	c #833202",
"L@	c #833401",
"M@	c #843600",
"N@	c #853700",
"O@	c #813501",
"P@	c #83360A",
"Q@	c #782C0A",
"R@	c #581906",
"S@	c #4C1606",
"T@	c #4D1B11",
"U@	c #44160F",
"V@	c #3C0E07",
"W@	c #451308",
"X@	c #4A1304",
"Y@	c #531702",
"Z@	c #5D1D03",
"`@	c #672306",
" #	c #7D3613",
".#	c #762C05",
"+#	c #823508",
"@#	c #853502",
"##	c #8C3702",
"$#	c #8E3700",
"%#	c #8C3501",
"&#	c #8E3405",
"*#	c #8E3309",
"=#	c #8E330B",
"-#	c #8D310A",
";#	c #8D3208",
">#	c #8D3304",
",#	c #863508",
"'#	c #753413",
")#	c #683E2A",
"!#	c #703B26",
"~#	c #7D3A23",
"{#	c #5A2414",
"]#	c #4E140A",
"^#	c #571603",
"/#	c #6D2000",
"(#	c #AC582E",
"_#	c #BD6739",
":#	c #BD6632",
"<#	c #BE632B",
"[#	c #C06327",
"}#	c #C36424",
"|#	c #C16321",
"1#	c #C16325",
"2#	c #BB5F21",
"3#	c #B45B17",
"4#	c #AD5710",
"5#	c #B45F1E",
"6#	c #BB662E",
"7#	c #9E4A20",
"8#	c #712201",
"9#	c #6D260C",
"0#	c #591D08",
"a#	c #521B0E",
"b#	c #441107",
"c#	c #420F05",
"d#	c #4F190B",
"e#	c #521601",
"f#	c #641E03",
"g#	c #752704",
"h#	c #8E3A0F",
"i#	c #BB6537",
"j#	c #BA6230",
"k#	c #BE632D",
"l#	c #BF6128",
"m#	c #C26122",
"n#	c #C56123",
"o#	c #C66025",
"p#	c #C65F29",
"q#	c #C65F2B",
"r#	c #C55E2A",
"s#	c #C55E28",
"t#	c #C55F24",
"u#	c #BF612A",
"v#	c #B5683C",
"w#	c #895534",
"x#	c #723823",
"y#	c #7F3A21",
"z#	c #5D2415",
"A#	c #420A01",
"B#	c #4E1209",
"C#	c #64200E",
"D#	c #712200",
"E#	c #9B4519",
"F#	c #A64E1E",
"G#	c #A84F18",
"H#	c #AD5218",
"I#	c #AD5113",
"J#	c #B15110",
"K#	c #B04D0C",
"L#	c #AD4A0E",
"M#	c #AC4A10",
"N#	c #AC4B0A",
"O#	c #AA4C0A",
"P#	c #A84C0E",
"Q#	c #A94E18",
"R#	c #9B3D16",
"S#	c #83280A",
"T#	c #79270C",
"U#	c #631902",
"V#	c #602112",
"W#	c #50140B",
"X#	c #480C03",
"Y#	c #611801",
"Z#	c #782408",
"`#	c #812502",
" $	c #AB4B20",
".$	c #AC4B1C",
"+$	c #AE4B18",
"@$	c #AE4A15",
"#$	c #B14A14",
"$$	c #B04A11",
"%$	c #B65015",
"&$	c #B74F17",
"*$	c #B74E1B",
"=$	c #B74D1D",
"-$	c #B44A19",
";$	c #B44A17",
">$	c #B44B13",
",$	c #AE4E15",
"'$	c #A45321",
")$	c #773E18",
"!$	c #743821",
"~$	c #80391F",
"{$	c #62261A",
"]$	c #480E06",
"^$	c #57190E",
"/$	c #702815",
"($	c #8D3004",
"_$	c #923605",
":$	c #913500",
"<$	c #8F3200",
"[$	c #8D2E00",
"}$	c #8A2800",
"|$	c #923000",
"1$	c #922F00",
"2$	c #963300",
"3$	c #933203",
"4$	c #93300D",
"5$	c #943213",
"6$	c #953A1B",
"7$	c #6B2514",
"8$	c #4F0F02",
"9$	c #501004",
"0$	c #66200F",
"a$	c #752207",
"b$	c #882D0E",
"c$	c #8F2E0D",
"d$	c #922F0C",
"e$	c #98330E",
"f$	c #932F06",
"g$	c #922E02",
"h$	c #922D00",
"i$	c #942E00",
"j$	c #932C00",
"k$	c #942B00",
"l$	c #942A00",
"m$	c #962B00",
"n$	c #962C00",
"o$	c #8F2F00",
"p$	c #8B3A0A",
"q$	c #6F3512",
"r$	c #74381F",
"s$	c #82391D",
"t$	c #5F2116",
"u$	c #480B07",
"v$	c #752B17",
"w$	c #82270A",
"x$	c #8F2C09",
"y$	c #95340E",
"z$	c #91330A",
"A$	c #8E3307",
"B$	c #8D3206",
"C$	c #8E3108",
"D$	c #913109",
"E$	c #933009",
"F$	c #97320B",
"G$	c #8F2905",
"H$	c #902809",
"I$	c #963010",
"J$	c #892A08",
"K$	c #762203",
"L$	c #6D2812",
"M$	c #511203",
"N$	c #4B0C00",
"O$	c #69230D",
"P$	c #7B2708",
"Q$	c #8A2E0B",
"R$	c #902E12",
"S$	c #8A2B0B",
"T$	c #903111",
"U$	c #8C2E09",
"V$	c #8D2F08",
"W$	c #8E2E05",
"X$	c #943005",
"Y$	c #982E07",
"Z$	c #982E0B",
"`$	c #982D0D",
" %	c #992E0E",
".%	c #80350F",
"+%	c #6E391E",
"@%	c #74391D",
"#%	c #58180E",
"$%	c #420300",
"%%	c #571509",
"&%	c #732713",
"*%	c #7E2007",
"=%	c #902D0F",
"-%	c #7F1D00",
";%	c #7D2000",
">%	c #812705",
",%	c #8C3211",
"'%	c #8D310E",
")%	c #8E300E",
"!%	c #902F0E",
"~%	c #902D0D",
"{%	c #973411",
"]%	c #872A03",
"^%	c #7A2703",
"/%	c #712C15",
"(%	c #501203",
"_%	c #490B00",
":%	c #822F0B",
"<%	c #8F330E",
"[%	c #87280D",
"}%	c #771A00",
"|%	c #7F2204",
"1%	c #8F3214",
"2%	c #8F3310",
"3%	c #8E320D",
"4%	c #8F2D07",
"5%	c #912C07",
"6%	c #912B0B",
"7%	c #912B0D",
"8%	c #8D270A",
"9%	c #8D2808",
"0%	c #8D2804",
"a%	c #882C07",
"b%	c #7E3313",
"c%	c #6B3820",
"d%	c #622117",
"e%	c #490A04",
"f%	c #5D180B",
"g%	c #742814",
"h%	c #812810",
"i%	c #8C2C13",
"j%	c #8A2A11",
"k%	c #7F2108",
"l%	c #80240A",
"m%	c #872B11",
"n%	c #8C3115",
"o%	c #8A300F",
"p%	c #8A300D",
"q%	c #8C2F0D",
"r%	c #8D310C",
"s%	c #8A2F05",
"t%	c #7C2905",
"u%	c #6E2D17",
"v%	c #4A1102",
"w%	c #440C00",
"x%	c #692813",
"y%	c #883511",
"z%	c #8C3008",
"A%	c #802102",
"B%	c #7B1C00",
"C%	c #8E2F10",
"D%	c #8D3006",
"E%	c #8C2D0B",
"F%	c #852604",
"G%	c #892A06",
"H%	c #8E3710",
"I%	c #813619",
"J%	c #6E3824",
"K%	c #84381D",
"L%	c #632115",
"M%	c #4A0902",
"N%	c #5E1809",
"O%	c #762812",
"P%	c #80270E",
"Q%	c #8D2D15",
"R%	c #86260E",
"S%	c #882A11",
"T%	c #85270E",
"U%	c #86280D",
"V%	c #8C2F0F",
"W%	c #8C300B",
"X%	c #8B320C",
"Y%	c #6F2C17",
"Z%	c #4A1104",
"`%	c #440B00",
" &	c #6B2713",
".&	c #8D2F0B",
"+&	c #8B2D08",
"@&	c #8E300C",
"#&	c #8E3106",
"$&	c #882C09",
"%&	c #892D08",
"&&	c #8A360E",
"*&	c #6E3826",
"=&	c #632113",
"-&	c #4A0A00",
";&	c #782712",
">&	c #902F10",
",&	c #913011",
"'&	c #892A0A",
")&	c #852606",
"!&	c #872907",
"~&	c #8E310A",
"{&	c #8C2E07",
"]&	c #7F2707",
"^&	c #722A17",
"/&	c #490900",
"(&	c #6E2613",
"_&	c #903104",
":&	c #903106",
"<&	c #90300A",
"[&	c #8F2E0B",
"}&	c #8A3108",
"|&	c #84381F",
"1&	c #622010",
"2&	c #5D1708",
"3&	c #762611",
"4&	c #822509",
"5&	c #932F0F",
"6&	c #993515",
"7&	c #953412",
"8&	c #91310D",
"9&	c #892805",
"0&	c #8A2A06",
"a&	c #902F0C",
"b&	c #742919",
"c&	c #500E02",
"d&	c #4B0800",
"e&	c #6F2415",
"f&	c #8B3217",
"g&	c #903008",
"h&	c #8F2F06",
"i&	c #91300F",
"j&	c #922F08",
"k&	c #892F09",
"l&	c #743723",
"m&	c #83280C",
"n&	c #8E2D0B",
"o&	c #852B0C",
"p&	c #7F2B13",
"q&	c #722A19",
"r&	c #551307",
"s&	c #4E0C00",
"t&	c #6B2312",
"u&	c #7B260E",
"v&	c #812609",
"w&	c #8B3016",
"x&	c #8D2F16",
"y&	c #8C2E13",
"z&	c #8D2E0F",
"A&	c #8D2D13",
"B&	c #8E2E16",
"C&	c #923219",
"D&	c #912F15",
"E&	c #6A3422",
"F&	c #743725",
"G&	c #843721",
"H&	c #61200D",
"I&	c #480900",
"J&	c #5C1506",
"K&	c #742512",
"L&	c #7F280C",
"M&	c #882E0C",
"N&	c #872C0B",
"O&	c #832B09",
"P&	c #852D0B",
"Q&	c #862E0C",
"R&	c #862E0E",
"S&	c #872F0F",
"T&	c #7C280B",
"U&	c #73240D",
"V&	c #672313",
"W&	c #541407",
"X&	c #4E0E01",
"Y&	c #642010",
"Z&	c #6F2109",
"`&	c #772309",
" *	c #852C13",
".*	c #852B15",
"+*	c #872A15",
"@*	c #872B13",
"#*	c #892D15",
"$*	c #852914",
"%*	c #882C16",
"&*	c #852A0E",
"**	c #812B0D",
"=*	c #762D12",
"-*	c #66301D",
";*	c #743727",
">*	c #843723",
",*	c #61200B",
"'*	c #6B1900",
")*	c #731E02",
"!*	c #742003",
"~*	c #711D01",
"{*	c #6F1D00",
"]*	c #6C1B00",
"^*	c #701E01",
"/*	c #711F04",
"(*	c #6D1F03",
"_*	c #661B00",
":*	c #5B1500",
"<*	c #551808",
"[*	c #491003",
"}*	c #480F02",
"|*	c #57190A",
"1*	c #5D1802",
"2*	c #6A1D03",
"3*	c #741D04",
"4*	c #731E04",
"5*	c #812D0C",
"6*	c #863312",
"7*	c #822E11",
"8*	c #701C02",
"9*	c #701C00",
"0*	c #711E00",
"a*	c #6B2508",
"b*	c #5F2C19",
"c*	c #71372B",
"d*	c #803827",
"e*	c #5F2011",
"f*	c #460900",
"g*	c #59160D",
"h*	c #6C271C",
"i*	c #601A09",
"j*	c #68200D",
"k*	c #6B210C",
"l*	c #681F08",
"m*	c #6D240A",
"n*	c #6A2309",
"o*	c #6A230B",
"p*	c #69210E",
"q*	c #692110",
"r*	c #531A10",
"s*	c #4C140C",
"t*	c #471007",
"u*	c #50160C",
"v*	c #511404",
"w*	c #5F1B09",
"x*	c #67220E",
"y*	c #6E2008",
"z*	c #6E2006",
"A*	c #6F1F06",
"B*	c #702A0D",
"C*	c #7E371D",
"D*	c #78311B",
"E*	c #6A1F0D",
"F*	c #661C05",
"G*	c #681F06",
"H*	c #6C2202",
"I*	c #6D2406",
"J*	c #652008",
"K*	c #5E2A1C",
"L*	c #542218",
"M*	c #5A150D",
"N*	c #52130F",
"O*	c #4A0F10",
"P*	c #4A1014",
"Q*	c #481112",
"R*	c #49100C",
"S*	c #531606",
"T*	c #531604",
"U*	c #501300",
"V*	c #4E1602",
"W*	c #4E1408",
"X*	c #551615",
"Y*	c #521213",
"Z*	c #50100D",
"`*	c #4D0F06",
" =	c #4D0F04",
".=	c #4C0E03",
"+=	c #4F0F04",
"@=	c #4E100A",
"#=	c #4A100A",
"$=	c #4C1312",
"%=	c #4A1414",
"&=	c #4C1515",
"*=	c #4B1211",
"==	c #49130F",
"-=	c #491512",
";=	c #4D1710",
">=	c #58190A",
",=	c #5F1C07",
"'=	c #561300",
")=	c #501301",
"!=	c #4B1405",
"~=	c #471304",
"{=	c #4E190F",
"]=	c #4F1715",
"^=	c #4C0F0C",
"/=	c #501207",
"(=	c #62210E",
"_=	c #551401",
":=	c #541003",
"<=	c #551F18",
"[=	c #4C1A0B",
"}=	c #4F0900",
"|=	c #500B00",
"1=	c #4F0901",
"2=	c #470A00",
"3=	c #460A00",
"4=	c #4B0900",
"5=	c #500D00",
"6=	c #521100",
"7=	c #511500",
"8=	c #4B1503",
"9=	c #430E05",
"0=	c #470F14",
"a=	c #470F17",
"b=	c #470F0D",
"c=	c #470D03",
"d=	c #4A0D00",
"e=	c #4D0E00",
"f=	c #500C00",
"g=	c #4F0B00",
"h=	c #490700",
"i=	c #4D0D00",
"j=	c #470E00",
"k=	c #490F00",
"l=	c #540F00",
"m=	c #581000",
"n=	c #5B1600",
"o=	c #451002",
"p=	c #42160C",
"q=	c #441714",
"r=	c #471518",
"s=	c #481210",
"t=	c #561400",
"u=	c #4C0A00",
"v=	c #54200F",
"w=	c #763F27",
"x=	c #8F401D",
"y=	c #96411C",
"z=	c #953C11",
"A=	c #973D0C",
"B=	c #973E0A",
"C=	c #963F0A",
"D=	c #953D0B",
"E=	c #984214",
"F=	c #94441D",
"G=	c #762E0E",
"H=	c #571900",
"I=	c #511A0F",
"J=	c #431316",
"K=	c #4C150A",
"L=	c #7D3814",
"M=	c #8D4315",
"N=	c #8C3B0B",
"O=	c #8C3905",
"P=	c #933E0B",
"Q=	c #964110",
"R=	c #943F0E",
"S=	c #984212",
"T=	c #95400F",
"U=	c #96410E",
"V=	c #99430C",
"W=	c #9B4207",
"X=	c #9D3E03",
"Y=	c #9C3D04",
"Z=	c #9D4410",
"`=	c #9B4A1F",
" -	c #722A09",
".-	c #4E1300",
"+-	c #471A09",
"@-	c #41180D",
"#-	c #46150D",
"$-	c #4F1607",
"%-	c #5D1E00",
"&-	c #853F13",
"*-	c #984C19",
"=-	c #954C15",
"--	c #86460E",
";-	c #73461A",
">-	c #935A3B",
",-	c #BC683E",
"'-	c #BE6430",
")-	c #BE5F24",
"!-	c #C2601D",
"~-	c #C26119",
"{-	c #C15E1E",
"]-	c #C25F21",
"^-	c #C3632A",
"/-	c #C16939",
"(-	c #873710",
"_-	c #4F1404",
":-	c #41100E",
"<-	c #451312",
"[-	c #501605",
"}-	c #5C1600",
"|-	c #A8582D",
"1-	c #B7622D",
"2-	c #B86023",
"3-	c #B65A1A",
"4-	c #BC5D1D",
"5-	c #BF5F20",
"6-	c #C16021",
"7-	c #C8611D",
"8-	c #C75E19",
"9-	c #C45A17",
"0-	c #C05819",
"a-	c #BD5D25",
"b-	c #BE6737",
"c-	c #84370F",
"d-	c #571500",
"e-	c #481907",
"f-	c #3E1208",
"g-	c #450F06",
"h-	c #541403",
"i-	c #641C00",
"j-	c #A95927",
"k-	c #C0682D",
"l-	c #B46021",
"m-	c #B87437",
"n-	c #875A29",
"o-	c #834828",
"p-	c #A24D23",
"q-	c #A04819",
"r-	c #A34810",
"s-	c #A5490A",
"t-	c #A64A0A",
"u-	c #A54D10",
"v-	c #A44C11",
"w-	c #A5480E",
"x-	c #A54912",
"y-	c #A34B19",
"z-	c #863107",
"A-	c #681B00",
"B-	c #5C1700",
"C-	c #4C0F08",
"D-	c #470B04",
"E-	c #661E0B",
"F-	c #691700",
"G-	c #973C14",
"H-	c #A64718",
"I-	c #9F410D",
"J-	c #9B3D04",
"K-	c #A5460D",
"L-	c #A84810",
"M-	c #A94911",
"N-	c #A94710",
"O-	c #AE4510",
"P-	c #AE4512",
"Q-	c #AB4410",
"R-	c #A84515",
"S-	c #A84B1D",
"T-	c #9C481D",
"U-	c #792E08",
"V-	c #611F03",
"W-	c #501C10",
"X-	c #3A0603",
"Y-	c #4D100E",
"Z-	c #672016",
"`-	c #A04219",
" ;	c #B04A18",
".;	c #A54713",
"+;	c #954A1F",
"@;	c #7A4929",
"#;	c #6F3215",
"$;	c #842D06",
"%;	c #872E03",
"&;	c #8A2D00",
"*;	c #8B2D00",
"=;	c #8B2F00",
"-;	c #883300",
";;	c #873201",
">;	c #882E00",
",;	c #892F00",
"';	c #872F00",
");	c #7E2900",
"!;	c #4B0D00",
"~;	c #4E0D03",
"{;	c #752613",
"];	c #7E250A",
"^;	c #973209",
"/;	c #8F3002",
"(;	c #8E2F00",
"_;	c #8F2E00",
":;	c #923102",
"<;	c #902F00",
"[;	c #8E2D00",
"};	c #8D2C00",
"|;	c #8F2B00",
"1;	c #902A00",
"2;	c #8C2A00",
"3;	c #8A2A02",
"4;	c #863109",
"5;	c #7F2E0A",
"6;	c #772F11",
"7;	c #5C2111",
"8;	c #571513",
"9;	c #73251B",
"0;	c #95320D",
"a;	c #982D02",
"b;	c #7C2F0E",
"c;	c #693620",
"d;	c #7B3821",
"e;	c #903516",
"f;	c #952E08",
"g;	c #93300B",
"h;	c #8F3513",
"i;	c #8A3512",
"j;	c #8C330B",
"k;	c #8E350C",
"l;	c #853008",
"m;	c #4C0F01",
"n;	c #762915",
"o;	c #832911",
"p;	c #8C280A",
"q;	c #96300E",
"r;	c #8A2A04",
"s;	c #96310A",
"t;	c #943009",
"u;	c #932F08",
"v;	c #922D06",
"w;	c #902E06",
"x;	c #8C3106",
"y;	c #8A2F07",
"z;	c #862A03",
"A;	c #7E2B08",
"B;	c #632307",
"C;	c #4B1100",
"D;	c #5D1909",
"E;	c #762917",
"F;	c #7E2508",
"G;	c #9B3813",
"H;	c #84371A",
"I;	c #6E3B28",
"J;	c #773420",
"K;	c #8A2D11",
"L;	c #8B2A0D",
"M;	c #8F2704",
"N;	c #8F2907",
"O;	c #8A2D0F",
"P;	c #862E10",
"Q;	c #852B0A",
"R;	c #872D07",
"S;	c #882E08",
"T;	c #87320D",
"U;	c #7B2D0A",
"V;	c #662205",
"W;	c #4D1000",
"X;	c #742812",
"Y;	c #8E2C0F",
"Z;	c #973013",
"`;	c #882608",
" >	c #842302",
".>	c #8D2A07",
"+>	c #912B09",
"@>	c #922D0B",
"#>	c #8E2D09",
"$>	c #873009",
"%>	c #8A2F09",
"&>	c #852700",
"*>	c #822D0A",
"=>	c #622103",
"->	c #490D00",
";>	c #5C1403",
">>	c #762513",
",>	c #792103",
"'>	c #952D0A",
")>	c #6C3926",
"!>	c #76331C",
"~>	c #8A2F11",
"{>	c #852806",
"]>	c #882801",
"^>	c #892800",
"/>	c #832906",
"(>	c #792B05",
"_>	c #692304",
":>	c #4F0D00",
"<>	c #510C01",
"[>	c #75270D",
"}>	c #7E2606",
"|>	c #8D2B0C",
"1>	c #8D2909",
"2>	c #842100",
"3>	c #8E2B08",
"4>	c #922F0A",
"5>	c #94310C",
"6>	c #842704",
"7>	c #933510",
"8>	c #79290D",
"9>	c #4A0B00",
"0>	c #5F1205",
"a>	c #7A2313",
"b>	c #7F2709",
"c>	c #8B2C0A",
"d>	c #75341C",
"e>	c #8D3102",
"f>	c #902D0B",
"g>	c #862708",
"h>	c #7A2A05",
"i>	c #6B2206",
"j>	c #530B01",
"k>	c #540A01",
"l>	c #76260D",
"m>	c #7E2604",
"n>	c #932D0E",
"o>	c #922C0D",
"p>	c #8B2604",
"q>	c #902A08",
"r>	c #94310E",
"s>	c #8B2805",
"t>	c #791A00",
"u>	c #822303",
"v>	c #923110",
"w>	c #8E3314",
"x>	c #7E270B",
"y>	c #772B12",
"z>	c #60220E",
"A>	c #641108",
"B>	c #7E2314",
"C>	c #8D3010",
"D>	c #73351C",
"E>	c #873111",
"F>	c #8C330F",
"G>	c #7C2907",
"H>	c #530B03",
"I>	c #540A03",
"J>	c #78250F",
"K>	c #802506",
"L>	c #922C0F",
"M>	c #983013",
"N>	c #942B0D",
"O>	c #902A0A",
"P>	c #8B2707",
"Q>	c #7B1900",
"R>	c #832105",
"S>	c #943012",
"T>	c #932F11",
"U>	c #8F3216",
"V>	c #7F260D",
"W>	c #782A12",
"X>	c #641106",
"Y>	c #7E2312",
"Z>	c #8B2D06",
"`>	c #932E0A",
" ,	c #71361C",
".,	c #85280A",
"+,	c #7A2909",
"@,	c #6B210A",
"#,	c #510B05",
"$,	c #510904",
"%,	c #8C2C11",
"&,	c #902C11",
"*,	c #962F14",
"=,	c #942E11",
"-,	c #922E10",
";,	c #8B2709",
">,	c #872508",
",,	c #8C280C",
"',	c #983214",
"),	c #922E0E",
"!,	c #8E3113",
"~,	c #772911",
"{,	c #5F200D",
"],	c #611105",
"^,	c #7B2311",
"/,	c #7F2705",
"(,	c #892E06",
"_,	c #70361E",
":,	c #863011",
"<,	c #8A3112",
"[,	c #8C3412",
"},	c #8C3213",
"|,	c #903317",
"1,	c #7A3010",
"2,	c #65220B",
"3,	c #480701",
"4,	c #4E0B06",
"5,	c #772508",
"6,	c #903015",
"7,	c #8C2F11",
"8,	c #963312",
"9,	c #983210",
"0,	c #96340E",
"a,	c #913212",
"b,	c #782B10",
"c,	c #5D230E",
"d,	c #4D1201",
"e,	c #5D1106",
"f,	c #762211",
"g,	c #7F2C0B",
"h,	c #90340F",
"i,	c #8D3513",
"j,	c #8C3E24",
"k,	c #6F3927",
"l,	c #6E371E",
"m,	c #813115",
"n,	c #7F2B11",
"o,	c #80290E",
"p,	c #7F290A",
"q,	c #7D2407",
"r,	c #7E2709",
"s,	c #7C2809",
"t,	c #832D11",
"u,	c #762409",
"v,	c #6C2809",
"w,	c #5A1E07",
"x,	c #470C07",
"y,	c #4C0F0A",
"z,	c #6C2104",
"A,	c #7B260C",
"B,	c #7C2306",
"C,	c #802808",
"D,	c #822806",
"E,	c #6D1D02",
"F,	c #662109",
"G,	c #530E06",
"H,	c #6B1E0F",
"I,	c #6E2102",
"J,	c #782703",
"K,	c #7F2906",
"L,	c #7E3217",
"M,	c #693321",
"N,	c #703B22",
"O,	c #873A1E",
"P,	c #77250A",
"Q,	c #711D03",
"R,	c #6D2001",
"S,	c #631A00",
"T,	c #551800",
"U,	c #471200",
"V,	c #43110B",
"W,	c #48140F",
"X,	c #571A06",
"Y,	c #601C00",
"Z,	c #6A1F04",
"`,	c #6F1D02",
" '	c #6B1B00",
".'	c #6F2002",
"+'	c #6A2105",
"@'	c #67230A",
"#'	c #571701",
"$'	c #521A08",
"%'	c #43170B",
"&'	c #4E110D",
"*'	c #5E190E",
"='	c #5E1901",
"-'	c #682000",
";'	c #632D1B",
">'	c #693522",
",'	c #772E17",
"''	c #671E03",
")'	c #661F05",
"!'	c #622007",
"~'	c #622009",
"{'	c #66210B",
"]'	c #601F07",
"^'	c #4F1800",
"/'	c #481501",
"('	c #4D1707",
"_'	c #531700",
":'	c #601F09",
"<'	c #641D07",
"['	c #681C03",
"}'	c #641B00",
"|'	c #671F00",
"1'	c #681F04",
"2'	c #671E05",
"3'	c #641F09",
"4'	c #5F200F",
"5'	c #5E2011",
"6'	c #5C1F0F",
"7'	c #5C200D",
"8'	c #602311",
"9'	c #5F2514",
"0'	c #4C1C11",
"a'	c #411910",
"b'	c #401610",
"c'	c #4B130F",
"d'	c #54160D",
"e'	c #611F05",
"f'	c #682109",
"g'	c #5E1E08",
"h'	c #5C2F1E",
"i'	c #4A1C13",
"j'	c #4B0B01",
"k'	c #4C0F00",
"l'	c #5B1A05",
"m'	c #501100",
"n'	c #470D05",
"o'	c #4F1909",
"p'	c #4B0D0B",
"q'	c #450707",
"r'	c #440C08",
"s'	c #420D06",
"t'	c #4E1207",
"u'	c #581404",
"v'	c #5C1602",
"w'	c #581300",
"x'	c #5A1800",
"y'	c #591600",
"z'	c #581402",
"A'	c #510D00",
"B'	c #4D0C04",
"C'	c #49100E",
"D'	c #441112",
"E'	c #441210",
"F'	c #450C0B",
"G'	c #4D1413",
"H'	c #460F0D",
"I'	c #3A0905",
"J'	c #3F120F",
"K'	c #421510",
"L'	c #4B130D",
"M'	c #521304",
"N'	c #551403",
"O'	c #3F1000",
"P'	c #442617",
"Q'	c #4F1A0F",
"R'	c #571400",
"S'	c #581500",
"T'	c #4E0D00",
"U'	c #4F120E",
"V'	c #460D0E",
"W'	c #491313",
"X'	c #55190E",
"Y'	c #591706",
"Z'	c #5A0F02",
"`'	c #550900",
" )	c #520E00",
".)	c #4E0F00",
"+)	c #511300",
"@)	c #5C1200",
"#)	c #601300",
"$)	c #5D1300",
"%)	c #611600",
"&)	c #611700",
"*)	c #641A00",
"=)	c #5C1100",
"-)	c #580C00",
";)	c #4F0800",
">)	c #4C0E0E",
",)	c #451014",
"')	c #411314",
"))	c #421212",
"!)	c #52160A",
"~)	c #521706",
"{)	c #511400",
"])	c #551400",
"^)	c #5C1500",
"/)	c #5A1100",
"()	c #691D03",
"_)	c #5A1500",
":)	c #4A1500",
"<)	c #472810",
"[)	c #8B492D",
"})	c #AB4F2C",
"|)	c #AC4D1E",
"1)	c #B0501A",
"2)	c #B25318",
"3)	c #B15620",
"4)	c #9C4721",
"5)	c #501006",
"6)	c #4C120F",
"7)	c #4B1010",
"8)	c #50140D",
"9)	c #AD522A",
"0)	c #AB4C1C",
"a)	c #AC501B",
"b)	c #AA4F17",
"c)	c #AC5117",
"d)	c #AA5015",
"e)	c #AB4D16",
"f)	c #AB4B15",
"g)	c #AB4E14",
"h)	c #AE5216",
"i)	c #AE5212",
"j)	c #AB4E10",
"k)	c #B3561C",
"l)	c #B45624",
"m)	c #580B00",
"n)	c #4F0D0A",
"o)	c #47110E",
"p)	c #47110A",
"q)	c #531608",
"r)	c #5B1900",
"s)	c #883F16",
"t)	c #A45625",
"u)	c #A44F1C",
"v)	c #AB521C",
"w)	c #AE521D",
"x)	c #AE511A",
"y)	c #AE4C14",
"z)	c #AC480F",
"A)	c #BC551D",
"B)	c #AA4C15",
"C)	c #A35723",
"D)	c #79471F",
"E)	c #A15636",
"F)	c #CB623A",
"G)	c #C55723",
"H)	c #C8591F",
"I)	c #CA5D20",
"J)	c #C66027",
"K)	c #B5572E",
"L)	c #631300",
"M)	c #4F1210",
"N)	c #480D0A",
"O)	c #511009",
"P)	c #7B2603",
"Q)	c #C46332",
"R)	c #C35D22",
"S)	c #C5601E",
"T)	c #C45F1B",
"U)	c #C15D1B",
"V)	c #BE581B",
"W)	c #BC561B",
"X)	c #C1591C",
"Y)	c #C45D1E",
"Z)	c #C45D1A",
"`)	c #C45E18",
" !	c #C55F1B",
".!	c #C75F1E",
"+!	c #CA6228",
"@!	c #9D3C0F",
"#!	c #5F0A00",
"$!	c #540C02",
"%!	c #471208",
"&!	c #591300",
"*!	c #964513",
"=!	c #BE6427",
"-!	c #BC5A19",
";!	c #C35C1B",
">!	c #C45D1C",
",!	c #C55B18",
"'!	c #C55917",
")!	c #CA5F1A",
"!!	c #CD5F1B",
"~!	c #C75F20",
"{!	c #C06932",
"]!	c #8E5229",
"^!	c #A23A18",
"/!	c #A83A12",
"(!	c #A83B0E",
"_!	c #A63B10",
":!	c #A13D14",
"<!	c #903411",
"[!	c #6A271E",
"}!	c #501512",
"|!	c #4A0F0E",
"1!	c #571810",
"2!	c #6E2410",
"3!	c #9C4117",
"4!	c #A1400F",
"5!	c #A14109",
"6!	c #9E3F06",
"7!	c #A1400D",
"8!	c #9C3B0C",
"9!	c #963206",
"0!	c #9E370F",
"a!	c #A33A10",
"b!	c #A33C0A",
"c!	c #A33C08",
"d!	c #A13A06",
"e!	c #A1390A",
"f!	c #752209",
"g!	c #662212",
"h!	c #420F07",
"i!	c #46150F",
"j!	c #591D13",
"k!	c #6D2510",
"l!	c #9D3D0B",
"m!	c #9F3D05",
"n!	c #A03C03",
"o!	c #A03C05",
"p!	c #A33E07",
"q!	c #A44009",
"r!	c #A03E10",
"s!	c #7B3F26",
"t!	c #7C321E",
"u!	c #902C13",
"v!	c #952B08",
"w!	c #942C08",
"x!	c #6E2819",
"y!	c #56150D",
"z!	c #5E1C10",
"A!	c #7B2706",
"B!	c #903307",
"C!	c #862804",
"D!	c #7F1C00",
"E!	c #8F280B",
"F!	c #942D04",
"G!	c #922C01",
"H!	c #963005",
"I!	c #942D06",
"J!	c #862806",
"K!	c #78280A",
"L!	c #692811",
"M!	c #461506",
"N!	c #692B20",
"O!	c #772A17",
"P!	c #902C00",
"Q!	c #8A2D01",
"R!	c #7B2B10",
"S!	c #6C3221",
"T!	c #763522",
"U!	c #882E1B",
"V!	c #8C2E15",
"W!	c #922D08",
"X!	c #7A2404",
"Y!	c #782710",
"Z!	c #5F1301",
"`!	c #520700",
" ~	c #661A08",
".~	c #78280C",
"+~	c #7C2704",
"@~	c #91330C",
"#~	c #92320A",
"$~	c #8E340E",
"%~	c #8A3510",
"&~	c #883212",
"*~	c #872209",
"=~	c #8F2A13",
"-~	c #8E2D07",
";~	c #822804",
">~	c #762A06",
",~	c #692A0B",
"'~	c #481600",
")~	c #511B06",
"!~	c #682510",
"~~	c #8B2B03",
"{~	c #943101",
"]~	c #8D3100",
"^~	c #8C3104",
"/~	c #802902",
"(~	c #7F2A04",
"_~	c #843311",
":~	c #843B22",
"<~	c #72392A",
"[~	c #6B3726",
"}~	c #7E3424",
"|~	c #84341F",
"1~	c #88331B",
"2~	c #893313",
"3~	c #813213",
"4~	c #74290E",
"5~	c #712A14",
"6~	c #5B1503",
"7~	c #5D1706",
"8~	c #6C270F",
"9~	c #833512",
"0~	c #853412",
"a~	c #803616",
"b~	c #7D361A",
"c~	c #793218",
"d~	c #82371E",
"e~	c #8B3820",
"f~	c #89331E",
"g~	c #812E1A",
"h~	c #83321E",
"i~	c #833416",
"j~	c #833414",
"k~	c #863716",
"l~	c #792E11",
"m~	c #682909",
"n~	c #5E270C",
"o~	c #421100",
"p~	c #491601",
"q~	c #672913",
"r~	c #722C0F",
"s~	c #7F2F08",
"t~	c #873308",
"u~	c #86360F",
"v~	c #843613",
"w~	c #833713",
"x~	c #813715",
"y~	c #762B0B",
"z~	c #682002",
"A~	c #672004",
"B~	c #6F2C15",
"C~	c #713827",
"D~	c #62382D",
"E~	c #5D392C",
"F~	c #6D3329",
"G~	c #753226",
"H~	c #753322",
"I~	c #6A3B29",
"J~	c #5F3327",
"K~	c #572B21",
"L~	c #4B2116",
"M~	c #4A1E16",
"N~	c #51251B",
"O~	c #5B3023",
"P~	c #6B3D26",
"Q~	c #6D3D24",
"R~	c #6B3D24",
"S~	c #6A3E26",
"T~	c #683922",
"U~	c #693922",
"V~	c #6B3724",
"W~	c #6B3728",
"X~	c #693826",
"Y~	c #603327",
"Z~	c #592F24",
"`~	c #441D11",
" {	c #481F12",
".{	c #572C1C",
"+{	c #60311E",
"@{	c #67371E",
"#{	c #6A371F",
"${	c #6B392A",
"%{	c #5F2D1E",
"&{	c #5D2E1E",
"*{	c #643B30",
"={	c #5B3C37",
"-{	c #523E3B",
"  . + @ # $ % & * = - ; > , ' ' ' ' ' ' ' ' ) . . ! ~ ! { ] ^ / ( _ * : < [ } | < 1 > 2 3 4 + 5 ",
"6 7 8 9 0 a 8 b c d e f g h i j j j j j j j j k k k k l m n o p q r s t u v w x y z A B C D E F ",
"G H I J K J L M N O P Q R A S T T T T T T T U U U V V U W X Y Z `  ...+.@.#.$.%.&.*.=.-.;.>.,.'.",
").!.~.{.].^./.(._.:.P <.[.9 }.|.|.|.|.1.J 2.3.4.4.4.4.5.4.6.7.8.9.0.a.b.c.d.&.e.e.e.e.e.e.f.g.h.",
"i.j.k.l.l.m.n.o.p.q.r.s.t.u.v v.v.v.w.x.y.z.A.A.A.A.A.B.A.C.D.E.F.G.H.I.J.K.L.k.k.k.k.k.k.w M.N.",
"O.M P.Q.R.S.T.U.V.W.X.Y.Z.`. +.+.+.+++@+#+$+%+&+&+&+&+*+&+=+-+;+>+,+'+)+!+~+{+]+]+]+]+]+]+^+/+(+",
"_+:+<+[+}+|+1+2+3+4+5+6+7+8+9+0+a+a+b+c+d+e+f+g+h+i+i+j+g+k+l+m+n+o+p+q+r+s+t+u+v+v+v+v+u+w+x+y+",
"z+A+B+C+D+E+F+G+H+I+J+J+K+L+M+N+O+P+Q+R+S+T+U+V+W+X+Y+Z+`+ @.@+@@@#@$@%@&@*@=@-@;@>@,@'@)@!@~@{@",
"]@^@/@(@_@Z+:@:@<@[@}@|@}@1@2@3@4@5@6@7@8@9@0@a@b@c@d@e@f@g@h@i@j@k@l@m@n@o@p@p@q@r@s@t@t@l@u@v@",
"w@x@y@z@A@B@C@D@E@F@G@H@I@J@K@L@M@N@O@P@Q@0+R@S@T@U@V@W@X@Y@Z@`@ #.#+#@###$#%#&#*#=#-#;#>#,#'#)#",
"!#~#{#4+]#^#/#(#_#:#<#[#}#|#1#2#3#4#5#6#7#8#9#0#a#b#c#d#e#f#g#h#i#j#k#l#1#m#n#o#p#q#r#s#t#u#v#w#",
"x#y#z#A#B#C#D#E#F#G#H#I#J#K#L#M#N#O#P#Q#R#S#T#U#V#W#X#'@Y#Z#`#4. $.$+$@$#$$$%$&$*$=$-$;$>$,$'$)$",
"!$~${$]$^$/$Y ;#($_$:$<$[$}$|$1$|$|$2$3$4$5$6$T#7$8$9$0$a$b$c$d$e$f$g$h$i$h$j$k$l$l$m$m$n$o$p$q$",
"r$s$t$u$Q+v$w$x$d$y$z$*#A$B$C$D$D$E$F$G$H$I$J$K$L$M$N$O$P$Q$%.R$S$T$W U$V$W$X$Y$Z$`$ %Z$Y$C$.%+%",
"@%s$#%$%%%&%*%=%K.-%;%>%2.,%B.'%)%!%c$~%I${%]%^%/%(%_%L$:%<%&.[%}%|%1%T 2%3%4%5%6%7%8%9%0%a%b%c%",
"@%s$d%e%f%g%h%i%j%k%*%l%m%n%o%p%q%q%'%'%'%r%s%t%u%v%w%x%y%z%U S$A%B%C%)%'%r%C$D%U$E%F%G%C$H%I%J%",
"r$K%L%M%N%O%P%i%Q%R%S%T%T%U%V%q%q%W%X%X%X%X%s%t%Y%Z%`% &y%D%.&U$+&+&@&@&r%-##&C$W%Q$$&%&;#&&I%*&",
"r$K%=&-&N%;&w$>&5$$.,&'&)&!&.&.&.&V$~&-#-#~&{&]&^&8$/&(&J V$V$-#=#=#=#-#-#C$_&:&<&[&[&<&:&}&I%*&",
"!$|&1&/&2&3&4&5&6&7&8&9&0&a&[&[&[&V$~&~&~&~&E%+.b&c&d&e&f&W '%W%%&a%r%r%r%~&g&h&a&i&i&d$j&k&I%*&",
"l&|&1&/&2&3&m&n&!%E%V )%U U )%)%)%r%W%W%W%p%o&p&q&r&s&t&u&v&w&w&w&w&x&x&x&y&z&z&A&B&C&D&,&|.i E&",
"F&G&H&I&J&K&L&M&o%M&N&O&P&P&Q&R&S&S&R&z.z.z.T&U&V&W&X&Y&Z&`& *.*.*.*+*+*+*@*L.e.#*$*%*@*&***=*-*",
";*>*,*I&J&_.'*)*!*~*{*]*{*{*^*Q./*/*R.R.R.(*_*:*<*[*}*|*1*2*/*3*3*3*3*3*4*)*5*6*7*`&8*9*0*D#a*b*",
"c*d*e*f*g*h*i*j*k*l*m*0+n*o*p*q*p*9+f+f+f+g+i+<*r*s*t*u*v*w*x*k*y*z*A*z*u+a+B*C*D*E*F*G*H*I*J*K*",
"L*M*N*O*P*P*Q*R*V+S*T*U*V*W*X*Y*Z*`* =.=+=@=#=$=%=Q*&=%=*===-=;=>=,=1*'=)=!=~={=]=^=/=)@(=_=:=<=",
"[=}=|=1=d&2=3=f*4=5=6=7=8=9=0=a=b=c=d=e=f=g=h=m@m@/&i=m@-&_%j=k=l=m=m=n=B+o=p=q=r=s=|@4@t=u=d&v=",
"w=x=y=z=A=B=C=D=A=E=F=G=H=I=J=J=K=-+L=M=N=O=P=Q=Q=R=S=Q=T=U=V=W=X=Y=Z=`= -.-+-@-#-$-%-&-*-=---;-",
">-,-'-)-!-~-!-{-]-^-/-(-:*_-:-<-[-}-|-1-2-3-4-5-5-5-6-6-5-{-7-8-9-0-a-b-c-d-e-f-g-h-i-j-k-l-m-n-",
"o-p-q-r-s-t-u-v-w-x-y-z-A-B-C-D-E-F-G-H-I-J-K-L-L-L-M-M-L-N-O-P-Q-R-S-T-U-V-W-X-Y-Z-)*`- ;.;+;@;",
"#;$;%;&;*;=;-;;;>;,;';);g#9#!;~;{;];0&^;/;(;_;:;:;<;_;[;};|;1;1;2;3;-#4;5;6;7;a@8;9;];0;a;f$b;c;",
"d;e;>&d$f;g;h;i;X%j;k;l;g#r+|@m;n;o;p;q;0&r;g;F$F$s;t;u;v;w;D%x;y;y;z%=#z;A;B;C;D;E;F;a&Y$G;H;I;",
"J;K;L;9%M;N;O;P;Q;R;S;T;U;V;%@W;X;+.Y;Z;`; >.>+>+>+>@>@>+>#>k&$>S;S;%>3%&>*>=>->;>>>,>3.'>!%j )>",
"!>~>{>]>^>^>[&W .&.&3./>(>_>:><>[>}>|>5&1>2>3>4>4>4>4>5>4>9&6>6.7>@&'%,%}>8>,*9>0>a>b>c>d$C%k )>",
"d>|.p%x;e>/;w;f>[&[&5&g>h>i>j>k>l>m>|>n>o>p>q>d$d$d$d$r>d$s>t>u>v>i&T$w>x>y>z>9@A>B>v&+&d$C>k )>",
"D>E>F>=#A$#&4>~%c$c$5&g>G>u+H>I>J>K>L;L>M>N>O>n>n>n>n>I$n>P>Q>R>S>T>T$U>V>W>(=9@X>Y>>%Z>`>)%j )>",
" ,}.|.p%}&z%c$$.z&z&,&.,+,@,#,$,3&F;%,&,*,=,K.-,-,-,-,S>-,;,>,,,',),>&!,];~,{,9>],^,/,(,4>'%j )>",
"_,v :,<,[,,%T !,},},|,];1,2,3,4,k*5,>.6,6,%.&.1%1%1%7,7,7,z&7&8,9,0,8&a,b>b,c,d,e,f,g,].h,i,j,k,",
"l,m,n,o,p,q,b>r,s,s,t,u,v,w,x,y,|+z,A,];];F;B,r,r,r,p,p,p,C,C,D,6>6>>%p,E,F,y@$@G,H,I,J,K,Y L,M,",
"N,O,P,]+Q,Q,.+I,H*H*R,S,T,U,V,W,X,Y,Z,E,`,{* '!+!+!+%+%+.'I,S.+'Z,Z,+'@'#'$'%'f-&'*'='-'%+&+m*;'",
">','@,v+u+u+'')'!'~'{']'^'/'-=J+('_':'<'F*['}'|'|'|'1'1'2'3'4'5'6'7'8'9'd#0'a'b'c'd''+e'f'f'g'h'",
"i'j'k'W;7=-+l'm'6+W+#=n'o'W*p'q'r's'f@t'u'v'w'x'x'x'y'z'A'B'C'D'E'J+F'G'H'I'J'K'W,L'0@M'N'(%O'P'",
"Q'}=q@n@R'S'='T'U'V'W'c'X'Y'Z'`' ).)+)'=@)#)$)%)&)&)*)=)-);)>),)')))F'y,!)~)%@{)])'=^)/)()_):)<)",
"[)})|)1)2)3)4)`.5)6)7)8)v'!+9)0)a)b)c)d)e)f)g)h)i)i)j)k)l)B.m)n)o)p)q)r)s)t)u)v)w)x)y)z)A)B)C)D)",
"E)F)G)H)I)J)K)L)r&M)N)O)@)P)Q)R)S)T)T)U)V)W)X)Y)Z)`) !.!+!@!#!$!X+%!T*&!*!=!-!;!>!,!'!)!!!~!{!]!",
"L,^!/!(!_!:!<!l>[!}!|!1!2!g,3!4!5!5!6!7!8!9!0!a!b!c!d!b!e!0;f!g!h!i!j!k!{.l!m!n!n!o!p!q!q!r!y=s!",
"t!u!N>v!w!f>$&u,x!y!e%z!X;A!=#B!&#&#B$-#C!D!E!N>w!F!G!H!I!J!K!L!M!0'N!O!6.P!o$o$o$(;(;&;Q!k&R!S!",
"T!U!V!$.w!W!+&X!Y!Z!`! ~.~+~@~#~$~%~&~w>Y;*~=~D&i&4.W$D$-~;~>~,~'~)~!~T#~~{~<;]~e>^~}&/~(~_~:~<~",
"[~}~|~1~S 2~3~4~5~6~ )7~8~6;9~0~a~b~c~d~e~f~g~h~x i~j~k~j~l~m~n~o~p~q~r~s~t~u~v~w~x~y~z~A~B~C~D~",
"E~F~G~H~_,c%I~J~K~L~M~N~O~3 P~Q~R~S~T~T~U~V~[~W~[~V~V~V~V~X~Y~Z~`~ {.{+{@{#{V~[~X~X~${%{&{*{={-{"};
